O0000 (Mold coating)
(POSTABILITY MAZAK VC-500 AM)
(MACHINE GROUP-1)
(MASTERCAM - 2024)
(MCAM FILE - D:\DOCUMENTS\MASTERCAM\ADDITIVE MANUFACTURING\5AX\MOLD COATING.MCAM)
(POST      - MPPOSTABILITY_MAZAK_VC500_AM.PST)
(PROGRAM   - Mold coating.EIA)
(DATE      - 2023.08.03)
(TIME      - 1:42 PM)
(T7   - 6.0MM SPOT SIZE      - H7   - D7   - D6.000mm)
(T6   - 4.0MM SPOT SIZE      - H6   - D6   - D4.000mm)

G00 G21 G40 G80 G90
(*********)
G54
G461 (WORK SHIFT FOR AM HEAD CANCEL)
(****** SET BS 9 TO RUN WITH LASER OFF *****)
/9(CHECK LASER STATUS BEGIN)
/9IF[#904900EQ0] GOTO110
/9GOTO120
/9N110
/9#3000=72(PRESS_LASER_READY_KEY->RESTART)
/9M30
/9N120
/9(CHECK LASER STATUS END)
(*********)
G91 G28 Z0.
G28 X0. Y0.
M46 M43
G28 B0. C0. W0.

N1
(OPERATION NO - 1)
(OPERATION TYPE - C-HOOK)

(***---ADDITIVE VARIABLES---***)
#800=0.(LASER IDLE POWER, WATTS)
#801=1000.(INITIAL LASER POWER, WATTS)
#802=7.(NOZZLE GAS, LITERS/MIN)
#803=7.(SHIELDING GAS, LITERS/MIN)
#804=50.(WIRE FEED SPEED, INCHES/MIN)
#805=0.(HOT WIRE POWER, WATTS)
#881=750.(FEEDRATE DURING BURN, INCHES/MIN)

T29 T6 M06 (6.0MM SPOT SIZE)
G91 G00 G28 Z0.
M444 (CLADDING DOOR OPEN)
G90 W-500. (EXTEND CLADDING HEAD)
/9M613 (MIST COLLECTOR ON)
(*** SET LASER PARAMETERS ***)
/9G910 E#801 F#804 H#805 I#802 J#803
(****** CLADDING PARAMETERS ******)
(E: LASER POWER         -W-)
(F: WIRE SPEED        -IPM-)
(H: WIRE PRE-HEAT       -W-)
(I: NOZZLE GAS FLOW    -LM-)
(J: SHIELD GAS FLOW    -LM-)
(****** CLADDING PARAMETERS ******)
G54 G17
G460 (WORK SHIFT ON FOR AM HEAD)
B11.119 C63.98
G68.2 X0. Y0. Z0. I153.98 J11.119 K0.
G53.1 P1
X-86.17 Y-86.091
G69
M46 M43
G94
G01 G43.4 X116.875 Y42.991 Z11.023 F12500.
X112.645 Y34.326 Z-38.039
/9G441 K1. (LASER ON)
X118.766 Y33.951 Z-38.434 B12.529 C72.55 F#881
X124.916 Y33.67 Z-38.722 B13.681 C78.809
X131.064 Y33.483 Z-38.908 B14.479 C83.886
X137.838 Y33.389 Z-39.001 B14.893 C88.656
X144.612 Y33.41 Z-38.981 B14.804 C93.277
X151.387 Y33.547 Z-38.846 B14.207 C98.167
X157.535 Y33.769 Z-38.62 B13.277 C103.657
X163.682 Y34.088 Z-38.29 B12.001 C110.574
X167.355 Y34.326 Z-38.039 B11.119 C116.02
/9M475 (WIRE FEED OFF)
/9G910 E#800 (LASER AT IDLE)
X163.125 Y42.991 Z11.023 F[[#881]+11750.]
Y71.496 C121.01
Y100. C125.999
Y128.505 C130.989
Y157.009 C243.98
X167.355 Y165.674 Z-38.039
/9G910 E#801 (LASER BACK TO FULL POWER)
/9M474 (WIRE FEED ON)
X161.234 Y166.049 Z-38.434 B12.529 C252.55 F#881
X155.084 Y166.33 Z-38.722 B13.681 C258.809
X148.936 Y166.517 Z-38.908 B14.479 C263.886
X142.162 Y166.611 Z-39.001 B14.893 C268.656
X135.388 Y166.59 Z-38.981 B14.804 C273.277
X128.613 Y166.453 Z-38.846 B14.207 C278.167
X122.465 Y166.231 Z-38.62 B13.277 C283.657
X116.318 Y165.912 Z-38.29 B12.001 C290.574
X112.645 Y165.674 Z-38.039 B11.119 C296.02
/9M475 (WIRE FEED OFF)
/9G910 E#800 (LASER AT IDLE)
X116.875 Y157.009 Z11.023 F[[#881]+11750.]
X111.238 Y128.428 Z11.631 C301.135
X105.6 Y99.847 Z12.239 C306.25
X99.962 Y71.266 Z12.847 C311.365
X98.553 Y64.12 Z12.999 C315.961
X97.143 Y56.975 Z13.151 C320.557
X95.734 Y49.83 Z13.303 C325.153
X94.324 Y42.685 Z13.455 B13.862 C45.94
X85.994 Y34.076 Z-35.089
/9G910 E#801 (LASER BACK TO FULL POWER)
/9M474 (WIRE FEED ON)
X91.344 Y33.375 Z-35.813 B16.114 C57.78 F#881
X96.82 Y32.737 Z-36.433 B18.575 C66.145
X102.944 Y32.123 Z-36.999 B21.21 C72.533
X109.082 Y31.608 Z-37.45 B23.566 C77.187
X115.866 Y31.154 Z-37.83 B25.743 C81.016
X122.656 Y30.817 Z-38.103 B27.413 C84.044
X129.459 Y30.592 Z-38.281 B28.551 C86.576
X136.274 Y30.479 Z-38.37 B29.134 C88.821
X143.094 Y30.474 Z-38.374 B29.16 C90.993
X149.92 Y30.578 Z-38.293 B28.623 C93.228
X156.741 Y30.793 Z-38.123 B27.532 C95.736
X163.53 Y31.12 Z-37.859 B25.911 C98.711
X170.304 Y31.563 Z-37.489 B23.782 C102.446
X176.452 Y32.068 Z-37.048 B21.46 C106.973
X182.577 Y32.672 Z-36.494 B18.842 C113.15
X188.048 Y33.301 Z-35.888 B16.389 C121.174
X192.886 Y33.924 Z-35.251 B14.313 C131.295
X194.001 Y34.076 Z-35.089 B13.865 C134.078
/9M475 (WIRE FEED OFF)
/9G910 E#800 (LASER AT IDLE)
X185.666 Y42.684 Z13.454 F[[#881]+11750.]
X185.667 Y71.342 C139.034
Y100. C143.991
Y128.658 C148.947
Y157.316 C225.923
X194.001 Y165.924 Z-35.089
/9G910 E#801 (LASER BACK TO FULL POWER)
/9M474 (WIRE FEED ON)
X188.656 Y166.625 Z-35.813 B16.114 C237.78 F#881
X183.18 Y167.263 Z-36.433 B18.575 C246.145
X177.056 Y167.877 Z-36.999 B21.21 C252.533
X170.918 Y168.392 Z-37.45 B23.566 C257.187
X164.134 Y168.846 Z-37.83 B25.743 C261.016
X157.344 Y169.183 Z-38.103 B27.413 C264.044
X150.541 Y169.408 Z-38.281 B28.551 C266.576
X143.726 Y169.521 Z-38.37 B29.134 C268.821
X136.906 Y169.526 Z-38.374 B29.16 C270.993
X130.08 Y169.422 Z-38.293 B28.623 C273.228
X123.259 Y169.207 Z-38.123 B27.532 C275.736
X116.47 Y168.88 Z-37.859 B25.911 C278.711
X109.696 Y168.437 Z-37.489 B23.782 C282.446
X103.548 Y167.932 Z-37.048 B21.46 C286.973
X97.423 Y167.328 Z-36.494 B18.842 C293.15
X91.952 Y166.699 Z-35.888 B16.389 C301.174
X87.114 Y166.076 Z-35.251 B14.309 C311.275
X85.994 Y165.924 Z-35.089 B13.862 C314.06
/9M475 (WIRE FEED OFF)
/9G910 E#800 (LASER AT IDLE)
X94.325 Y157.315 Z13.455 F[[#881]+11750.]
X90.692 Y128.581 Z14.063 C319.061
X87.059 Y99.846 Z14.671 C324.061
X83.427 Y71.112 Z15.278 C329.061
X82.216 Y61.534 Z15.481 C334.71
X81.005 Y51.955 Z15.683 C340.358
X79.794 Y42.377 Z15.886 B16.141 C37.958
X68.834 Y33.827 Z-32.143
/9G910 E#801 (LASER BACK TO FULL POWER)
/9M474 (WIRE FEED ON)
X73.171 Y33.05 Z-32.936 B18.33 C49.82 F#881
X77.979 Y32.255 Z-33.691 B21.156 C59.315
X83.434 Y31.442 Z-34.413 B24.497 C66.853
X88.908 Y30.72 Z-35.013 B27.772 C72.134
X94.425 Y30.083 Z-35.51 B30.855 C76.099
X100.583 Y29.474 Z-35.956 B33.97 C79.396
X106.762 Y28.966 Z-36.307 B36.691 C81.94
X113.576 Y28.52 Z-36.601 B39.185 C84.153
X121.026 Y28.159 Z-36.829 B41.277 C86.104
X128.487 Y27.922 Z-36.974 B42.692 C87.714
X136.572 Y27.798 Z-37.048 B43.447 C89.336
X144.666 Y27.808 Z-37.042 B43.384 C90.898
X152.135 Y27.937 Z-36.965 B42.6 C92.385
X159.595 Y28.185 Z-36.814 B41.128 C94.055
X167.044 Y28.556 Z-36.578 B38.982 C96.036
X173.857 Y29.013 Z-36.276 B36.438 C98.299
X180.036 Y29.53 Z-35.916 B33.674 C100.899
X186.19 Y30.149 Z-35.459 B30.525 C104.298
X191.704 Y30.796 Z-34.951 B27.413 C108.358
X197.183 Y31.529 Z-34.338 B24.129 C113.929
X202.629 Y32.351 Z-33.602 B20.794 C121.739
X207.444 Y33.156 Z-32.83 B17.986 C131.603
X211.172 Y33.827 Z-32.142 B16.166 C142.137
/9M475 (WIRE FEED OFF)
/9G910 E#800 (LASER AT IDLE)
X200.182 Y42.372 Z15.881 F[[#881]+11750.]
X200.187 Y71.185 Z15.882 C147.058
X200.192 Y99.997 Z15.883 C151.979
X200.197 Y128.81 Z15.884 C156.901
X200.201 Y157.623 Z15.885 B16.144 C217.949
X211.164 Y166.173 Z-32.143
/9G910 E#801 (LASER BACK TO FULL POWER)
/9M474 (WIRE FEED ON)
X206.829 Y166.95 Z-32.936 B18.33 C229.82 F#881
X202.021 Y167.745 Z-33.691 B21.156 C239.315
X196.566 Y168.558 Z-34.413 B24.497 C246.853
X191.092 Y169.28 Z-35.013 B27.772 C252.134
X185.575 Y169.917 Z-35.51 B30.855 C256.099
X179.417 Y170.526 Z-35.956 B33.97 C259.396
X173.238 Y171.034 Z-36.307 B36.691 C261.94
X166.424 Y171.48 Z-36.601 B39.185 C264.153
X158.974 Y171.841 Z-36.829 B41.277 C266.104
X151.513 Y172.078 Z-36.974 B42.692 C267.714
X143.428 Y172.202 Z-37.048 B43.447 C269.336
X135.334 Y172.192 Z-37.042 B43.384 C270.898
X127.865 Y172.063 Z-36.965 B42.6 C272.385
X120.405 Y171.815 Z-36.814 B41.128 C274.055
X112.956 Y171.444 Z-36.578 B38.982 C276.036
X106.143 Y170.987 Z-36.276 B36.438 C278.299
X99.964 Y170.47 Z-35.916 B33.674 C280.899
X93.81 Y169.851 Z-35.459 B30.525 C284.298
X88.296 Y169.204 Z-34.951 B27.413 C288.358
X82.817 Y168.471 Z-34.338 B24.129 C293.929
X77.371 Y167.649 Z-33.602 B20.794 C301.739
X72.556 Y166.844 Z-32.83 B17.986 C311.603
X68.826 Y166.173 Z-32.141 B16.164 C322.128
/9M475 (WIRE FEED OFF)
/9G910 E#800 (LASER AT IDLE)
X79.814 Y157.628 Z15.882 F[[#881]+11750.]
X78.406 Y135.366 Z15.925 C327.35
X76.999 Y113.103 Z15.967 C332.572
X75.591 Y90.841 Z16.01 C337.793
X74.184 Y68.579 Z16.053 C343.015
X72.776 Y46.317 Z16.096 B21.506 C49.675
X60.915 Y32.342 Z-30.423
/9G910 E#801 (LASER BACK TO FULL POWER)
/9M474 (WIRE FEED ON)
X65.232 Y31.486 Z-31.195 B24.579 C58.464 F#881
X70.107 Y30.607 Z-31.936 B28.25 C65.415
X74.892 Y29.822 Z-32.545 B31.843 C70.528
X80.393 Y29.021 Z-33.122 B35.829 C74.796
X85.919 Y28.317 Z-33.591 B39.586 C78.013
X92.081 Y27.647 Z-34.007 B43.412 C80.735
X98.889 Y27.033 Z-34.358 B45. C83.03
X105.722 Y26.54 Z-34.621 C84.789
X113.187 Y26.125 Z-34.828 C86.31
X121.287 Y25.807 Z-34.979 C87.627
X130.015 Y25.6 Z-35.072 C88.799
X139.376 Y25.52 Z-35.108 C89.929
X148.737 Y25.581 Z-35.081 C91.041
X157.462 Y25.769 Z-34.995 C92.217
X165.567 Y26.068 Z-34.856 C93.472
X173.034 Y26.462 Z-34.661 C94.936
X179.867 Y26.935 Z-34.412 C96.629
X186.683 Y27.526 Z-34.078 B44.131 C98.808
X192.856 Y28.175 Z-33.682 B40.378 C101.387
X198.386 Y28.857 Z-33.235 B36.684 C104.421
X203.888 Y29.636 Z-32.683 B32.746 C108.422
X208.754 Y30.41 Z-32.09 B29.116 C113.179
X213.57 Y31.262 Z-31.39 B25.478 C119.624
X217.776 Y32.075 Z-30.67 B22.412 C127.367
X220.483 Y32.65 Z-30.148 B20.692 C134.665
X222.419 Y33.17 Z-29.746 B19.497 C142.295
X223.749 Y33.621 Z-29.449 B18.834 C149.448
/9M475 (WIRE FEED OFF)
/9G910 E#800 (LASER AT IDLE)
X209.849 Y41.826 Z17.874 F[[#881]+11750.]
Y70.913 C154.17
Y100. C158.893
X209.848 Y129.087 C163.615
Y138.783 C168.54
Y148.479 C173.464
Y158.174 C210.551
X223.749 Y166.379 Z-29.449
/9G910 E#801 (LASER BACK TO FULL POWER)
/9M474 (WIRE FEED ON)
X221.787 Y167.017 Z-29.881 B19.854 C220.67 F#881
X219.794 Y167.507 Z-30.285 B21.039 C227.831
X215.367 Y168.399 Z-31.095 B24.142 C237.389
X210.559 Y169.275 Z-31.843 B27.736 C244.566
X205.717 Y170.083 Z-32.473 B31.39 C249.968
X200.845 Y170.808 Z-33.003 B34.95 C253.959
X195.32 Y171.534 Z-33.495 B38.767 C257.373
X189.158 Y172.227 Z-33.932 B42.673 C260.231
X182.972 Y172.812 Z-34.272 B45. C262.465
X176.145 Y173.337 Z-34.557 C264.343
X168.674 Y173.783 Z-34.783 C265.955
X160.583 Y174.13 Z-34.95 C267.346
X151.854 Y174.367 Z-35.058 C268.567
X142.49 Y174.476 Z-35.105 C269.721
X133.137 Y174.443 Z-35.091 C270.815
X124.41 Y174.282 Z-35.019 C271.961
X115.678 Y173.986 Z-34.882 C273.258
X108.21 Y173.612 Z-34.699 C274.669
X100.754 Y173.113 Z-34.438 C276.46
X93.935 Y172.533 Z-34.113 B44.484 C278.586
X87.76 Y171.895 Z-33.726 B40.77 C281.098
X82.228 Y171.224 Z-33.289 B37.108 C284.042
X76.721 Y170.457 Z-32.75 B33.201 C287.947
X71.845 Y169.689 Z-32.169 B29.566 C292.505
X67.029 Y168.848 Z-31.484 B25.921 C298.683
X62.836 Y168.048 Z-30.781 B22.842 C306.073
X59.517 Y167.35 Z-30.148 B20.692 C314.665
X57.581 Y166.83 Z-29.746 B19.497 C322.295
X56.251 Y166.379 Z-29.449 B18.834 C329.448
/9M475 (WIRE FEED OFF)
/9G910 E#800 (LASER AT IDLE)
X70.151 Y158.174 Z17.874 F[[#881]+11750.]
Y129.087 C334.17
Y100. C338.893
X70.152 Y70.913 C343.615
Y41.826 C30.551
X56.251 Y33.621 Z-29.449
/9G910 E#801 (LASER BACK TO FULL POWER)
/9M474 (WIRE FEED ON)
X58.213 Y32.983 Z-29.881 B19.854 C40.67 F#881
X60.206 Y32.493 Z-30.285 B21.039 C47.831
X60.915 Y32.342 Z-30.423 B21.531 C49.56
/9M475 (WIRE FEED OFF)
/9G910 E#800 (LASER AT IDLE)
X60.101 Y29.566 Z-29.581 B32.795 C66.465 F[[#881]+11750.]
/9G910 E#801 (LASER BACK TO FULL POWER)
/9M474 (WIRE FEED ON)
X64.553 Y28.747 Z-30.162 B36.717 C71.081 F#881
X69.475 Y27.944 Z-30.695 B40.921 C74.798
X74.944 Y27.154 Z-31.166 B45. C78.101
X80.495 Y26.468 Z-31.543 C80.602
X86.684 Y25.825 Z-31.865 C82.763
X93.514 Y25.25 Z-32.128 C84.581
X100.985 Y24.761 Z-32.329 C86.087
X109.091 Y24.369 Z-32.475 C87.307
X118.451 Y24.063 Z-32.58 C88.365
X129.068 Y23.868 Z-32.642 C89.244
X140.937 Y23.805 Z-32.661 C90.062
X152.181 Y23.884 Z-32.637 C90.842
X162.797 Y24.096 Z-32.569 C91.745
X172.157 Y24.421 Z-32.457 C92.853
X180.262 Y24.833 Z-32.301 C94.133
X187.73 Y25.345 Z-32.086 C95.719
X193.936 Y25.884 Z-31.837 C97.441
X200.118 Y26.539 Z-31.506 C99.652
X205.67 Y27.237 Z-31.118 B44.906 C102.222
X210.574 Y27.947 Z-30.687 B40.895 C105.155
X215.447 Y28.747 Z-30.162 B36.717 C108.927
X219.92 Y29.571 Z-29.578 B32.791 C113.7
X222.102 Y30.052 Z-29.268 B30.723 C117.234
X223.527 Y30.45 Z-29.063 B29.571 C121.896
X224.906 Y30.917 Z-28.85 B28.472 C126.616
X226.894 Y31.743 Z-28.513 B26.84 C133.928
X228.783 Y32.711 Z-28.154 B25.24 C141.58
X230.565 Y33.809 Z-27.773 B23.683 C149.602
X231.688 Y34.604 Z-27.508 B22.68 C155.156
X232.375 Y35.131 Z-27.335 B21.914 C158.088
/9M475 (WIRE FEED OFF)
/9G910 E#800 (LASER AT IDLE)
X215.062 Y42.095 Z19.052 F[[#881]+11750.]
Y80.698 C163.425
X215.063 Y119.302 C168.762
Y138.604 C174.874
Y157.906 C201.91
X232.375 Y164.869 Z-27.335
/9G910 E#801 (LASER BACK TO FULL POWER)
/9M474 (WIRE FEED ON)
X231.133 Y165.8 Z-27.641 B23.068 C208.155 F#881
X229.39 Y166.936 Z-28.029 B24.617 C216.285
X227.535 Y167.949 Z-28.396 B26.216 C224.045
X225.579 Y168.824 Z-28.741 B27.85 C231.451
X224.223 Y169.325 Z-28.958 B28.95 C236.214
X222.818 Y169.758 Z-29.167 B30.126 C240.423
X220.654 Y170.281 Z-29.473 B32.112 C245.442
X216.055 Y171.147 Z-30.088 B36.187 C250.535
X211.233 Y171.946 Z-30.625 B40.317 C254.386
X206.286 Y172.679 Z-31.069 B44.414 C257.455
X200.74 Y173.388 Z-31.467 B45. C260.095
X194.547 Y174.057 Z-31.808 C262.368
X188.348 Y174.606 Z-32.064 C264.131
X181.504 Y175.092 Z-32.27 C265.646
X173.405 Y175.525 Z-32.437 C266.975
X164.67 Y175.85 Z-32.551 C268.05
X154.68 Y176.079 Z-32.625 C268.965
X143.436 Y176.189 Z-32.659 C269.77
X131.567 Y176.158 Z-32.65 C270.561
X120.949 Y175.996 Z-32.599 C271.404
X111.587 Y175.727 Z-32.508 C272.391
X102.854 Y175.342 Z-32.369 C273.599
X95.38 Y174.885 Z-32.185 C275.006
X88.545 Y174.345 Z-31.945 C276.694
X82.35 Y173.738 Z-31.649 C278.692
X76.792 Y173.086 Z-31.302 C281.
X71.252 Y172.328 Z-30.858 B42.412 C283.956
X66.373 Y171.563 Z-30.371 B38.294 C287.384
X61.481 Y170.698 Z-29.772 B34.023 C291.957
X58.617 Y170.12 Z-29.37 B31.474 C296.143
X56.473 Y169.55 Z-29.063 B29.571 C301.896
X55.094 Y169.083 Z-28.85 B28.472 C306.616
X53.106 Y168.257 Z-28.513 B26.84 C313.928
X51.217 Y167.289 Z-28.154 B25.24 C321.58
X49.435 Y166.191 Z-27.773 B23.683 C329.602
X48.312 Y165.396 Z-27.508 B22.68 C335.156
X47.625 Y164.869 Z-27.335 B21.914 C338.088
/9M475 (WIRE FEED OFF)
/9G910 E#800 (LASER AT IDLE)
X64.938 Y157.905 Z19.052 F[[#881]+11750.]
Y119.302 C343.425
X64.937 Y80.698 C348.762
Y61.396 C354.874
Y42.094 C21.91
X47.625 Y35.131 Z-27.335
/9G910 E#801 (LASER BACK TO FULL POWER)
/9M474 (WIRE FEED ON)
X48.867 Y34.2 Z-27.641 B23.068 C28.155 F#881
X50.61 Y33.064 Z-28.029 B24.617 C36.285
X52.465 Y32.051 Z-28.396 B26.216 C44.045
X54.421 Y31.176 Z-28.741 B27.85 C51.451
X55.777 Y30.675 Z-28.958 B28.95 C56.214
X57.182 Y30.242 Z-29.167 B30.126 C60.423
X59.346 Y29.719 Z-29.473 B32.112 C65.442
X60.101 Y29.566 Z-29.581 B32.809 C66.362
/9M475 (WIRE FEED OFF)
/9G910 E#800 (LASER AT IDLE)
X60.157 Y26.894 Z-28.19 B45. C75.476 F[[#881]+11750.]
/9G910 E#801 (LASER BACK TO FULL POWER)
/9M474 (WIRE FEED ON)
X65.22 Y26.115 Z-28.611 C78.474 F#881
X70.769 Y25.388 Z-28.964 C81.073
X76.342 Y24.782 Z-29.231 C83.034
X82.557 Y24.233 Z-29.444 C84.767
X89.406 Y23.766 Z-29.605 C86.232
X96.89 Y23.392 Z-29.717 C87.418
X106.257 Y23.081 Z-29.797 C88.467
X117.502 Y22.871 Z-29.843 C89.252
X133.125 Y22.757 Z-29.864 C89.831
X151.874 Y22.778 Z-29.861 C90.313
X165.622 Y22.915 Z-29.833 C90.925
X176.241 Y23.149 Z-29.78 C91.783
X184.982 Y23.473 Z-29.694 C92.843
X192.463 Y23.88 Z-29.567 C94.125
X199.309 Y24.384 Z-29.388 C95.709
X205.518 Y24.972 Z-29.151 C97.58
X211.082 Y25.617 Z-28.858 C99.743
X216.009 Y26.293 Z-28.518 C102.169
X220.63 Y27.029 Z-28.118 C105.261
X222.989 Y27.507 Z-27.909 B42.966 C108.885
X224.556 Y27.927 Z-27.765 B41.677 C112.678
X226.075 Y28.425 Z-27.613 B40.385 C116.497
X227.552 Y29. Z-27.453 B39.081 C120.358
X228.984 Y29.648 Z-27.284 B37.771 C124.263
X230.368 Y30.367 Z-27.107 B36.457 C128.22
X231.702 Y31.152 Z-26.922 B35.14 C132.225
X232.98 Y31.996 Z-26.729 B33.826 C136.265
X234.791 Y33.37 Z-26.425 B31.86 C142.411
X236.474 Y34.861 Z-26.105 B29.901 C148.641
X238.022 Y36.453 Z-25.773 B27.956 C154.928
X239.427 Y38.126 Z-25.432 B26.037 C161.222
X240.421 Y39.468 Z-25.164 B24.466 C165.433
/9M475 (WIRE FEED OFF)
/9G910 E#800 (LASER AT IDLE)
X220.379 Y44.676 Z20.347 F[[#881]+11750.]
Y99.999 Z20.346 C171.413
Y155.322 B24.467 C194.572
X240.421 Y160.532 Z-25.164
/9G910 E#801 (LASER BACK TO FULL POWER)
/9M474 (WIRE FEED ON)
X239.427 Y161.874 Z-25.432 B25.962 C199.229 F#881
X238.023 Y163.546 Z-25.773 B27.887 C205.505
X236.474 Y165.139 Z-26.105 B29.839 C211.77
X234.791 Y166.63 Z-26.425 B31.804 C217.981
X232.979 Y168.004 Z-26.729 B33.777 C224.106
X231.702 Y168.848 Z-26.922 B35.095 C228.134
X230.368 Y169.633 Z-27.107 B36.416 C232.126
X228.984 Y170.352 Z-27.284 B37.734 C236.071
X227.552 Y171. Z-27.453 B39.048 C239.964
X226.075 Y171.575 Z-27.613 B40.353 C243.816
X224.556 Y172.073 Z-27.765 B41.649 C247.623
X222.989 Y172.494 Z-27.909 B42.942 C251.403
X220.607 Y172.976 Z-28.12 B45. C254.899
X216.009 Y173.707 Z-28.518 C257.834
X211.084 Y174.378 Z-28.862 C260.191
X205.518 Y175.028 Z-29.151 C262.422
X199.309 Y175.616 Z-29.388 C264.293
X192.463 Y176.12 Z-29.567 C265.875
X184.982 Y176.527 Z-29.694 C267.16
X176.241 Y176.851 Z-29.78 C268.243
X165.622 Y177.085 Z-29.833 C269.075
X151.249 Y177.225 Z-29.861 C269.706
X132.5 Y177.241 Z-29.864 C270.186
X116.878 Y177.121 Z-29.841 C270.781
X105.633 Y176.903 Z-29.793 C271.589
X96.89 Y176.608 Z-29.717 C272.576
X89.406 Y176.234 Z-29.605 C273.767
X82.557 Y175.767 Z-29.444 C275.232
X76.342 Y175.218 Z-29.231 C276.97
X70.769 Y174.612 Z-28.964 C278.979
X65.22 Y173.885 Z-28.611 C281.501
X60.132 Y173.102 Z-28.188 C284.601
X57.802 Y172.671 Z-27.978 B43.603 C287.02
X56.223 Y172.294 Z-27.838 B42.323 C290.775
X54.678 Y171.834 Z-27.69 B41.031 C294.585
X53.181 Y171.297 Z-27.534 B39.734 C298.421
X51.726 Y170.685 Z-27.37 B38.427 C302.304
X50.319 Y170.001 Z-27.197 B37.116 C306.234
X48.958 Y169.248 Z-27.015 B35.798 C310.219
X47.652 Y168.434 Z-26.826 B34.483 C314.239
X45.799 Y167.102 Z-26.528 B32.516 C320.35
X44.072 Y165.648 Z-26.213 B30.553 C326.558
X42.479 Y164.088 Z-25.885 B28.603 C332.827
X41.025 Y162.44 Z-25.546 B26.676 C339.131
X40.131 Y161.295 Z-25.316 B25.395 C343.339
X39.579 Y160.532 Z-25.164 B24.466 C345.433
/9M475 (WIRE FEED OFF)
/9G910 E#800 (LASER AT IDLE)
X59.621 Y155.324 Z20.347 F[[#881]+11750.]
Y100.001 Z20.346 C351.413
Y72.339 C356.181
Y44.678 B24.467 C14.572
X39.579 Y39.468 Z-25.164
/9G910 E#801 (LASER BACK TO FULL POWER)
/9M474 (WIRE FEED ON)
X40.573 Y38.126 Z-25.432 B25.962 C19.229 F#881
X41.977 Y36.454 Z-25.773 B27.887 C25.505
X43.526 Y34.861 Z-26.105 B29.839 C31.77
X45.209 Y33.37 Z-26.425 B31.804 C37.981
X47.021 Y31.996 Z-26.729 B33.777 C44.106
X48.298 Y31.152 Z-26.922 B35.095 C48.134
X49.632 Y30.367 Z-27.107 B36.416 C52.126
X51.016 Y29.648 Z-27.284 B37.734 C56.071
X52.448 Y29. Z-27.453 B39.048 C59.964
X53.925 Y28.425 Z-27.613 B40.353 C63.816
X55.444 Y27.927 Z-27.765 B41.649 C67.623
X57.011 Y27.506 Z-27.909 B42.942 C71.403
X59.393 Y27.024 Z-28.12 B45. C74.899
X60.157 Y26.894 Z-28.19 C75.426
/9M475 (WIRE FEED OFF)
/9G910 E#800 (LASER AT IDLE)
X59.582 Y24.744 Z-26.156 C80.607 F[[#881]+11750.]
/9G910 E#801 (LASER BACK TO FULL POWER)
/9M474 (WIRE FEED ON)
X64.77 Y24.126 Z-26.401 C82.771 F#881
X70.36 Y23.593 Z-26.589 C84.595
X76.586 Y23.141 Z-26.726 C86.184
X83.449 Y22.789 Z-26.815 C87.519
X91.565 Y22.531 Z-26.869 C88.664
X101.563 Y22.384 Z-26.893 C89.559
X123.438 Y22.353 Z-26.897 C90.
X177.187 Y22.376 Z-26.895 C90.361
X187.185 Y22.504 Z-26.874 C91.195
X195.302 Y22.739 Z-26.826 C92.276
X202.167 Y23.066 Z-26.746 C93.561
X208.396 Y23.492 Z-26.622 C95.042
X213.992 Y23.997 Z-26.449 C96.794
X218.979 Y24.559 Z-26.231 C98.733
X222.097 Y24.988 Z-26.074 C101.128
X223.807 Y25.318 Z-25.991 C104.516
X225.496 Y25.741 Z-25.901 C107.944
X227.139 Y26.25 Z-25.805 C111.373
X228.742 Y26.844 Z-25.702 C114.813
X230.299 Y27.519 Z-25.592 C118.267
X231.811 Y28.274 Z-25.475 C121.737
X233.269 Y29.101 Z-25.352 C125.209
X234.669 Y29.997 Z-25.222 C128.681
X236.011 Y30.958 Z-25.086 B44.688 C132.152
X237.296 Y31.984 Z-24.943 B43.272 C135.625
X238.517 Y33.065 Z-24.795 B41.864 C139.075
X239.674 Y34.199 Z-24.641 B40.465 C142.503
X241.28 Y35.981 Z-24.405 B38.395 C147.569
X242.747 Y37.872 Z-24.159 B36.337 C152.523
X244.056 Y39.829 Z-23.912 B34.344 C157.292
X245.225 Y41.869 Z-23.664 B32.39 C161.83
X246.249 Y43.967 Z-23.422 B30.512 C166.046
X247.129 Y46.113 Z-23.191 B28.727 C169.831
X247.637 Y47.564 Z-23.047 B27.61 C172.084
X248.045 Y48.858 Z-22.925 B26.653 C173.048
/9M475 (WIRE FEED OFF)
/9G910 E#800 (LASER AT IDLE)
X225.781 Y51.573 Z21.762 F[[#881]+11750.]
X225.78 Y148.428 Z21.761 B26.654 C186.953
X248.045 Y151.143 Z-22.925
/9G910 E#801 (LASER BACK TO FULL POWER)
/9M474 (WIRE FEED ON)
X247.391 Y153.163 Z-23.118 B28.121 C189.435 F#881
X246.558 Y155.322 Z-23.343 B29.866 C193.032
X245.583 Y157.437 Z-23.582 B31.714 C197.096
X244.463 Y159.497 Z-23.829 B33.646 C201.512
X243.201 Y161.483 Z-24.077 B35.631 C206.199
X241.782 Y163.402 Z-24.324 B37.676 C211.084
X240.228 Y165.216 Z-24.563 B39.739 C216.096
X239.104 Y166.374 Z-24.719 B41.135 C219.495
X237.914 Y167.483 Z-24.87 B42.543 C222.928
X236.662 Y168.536 Z-25.015 B43.956 C226.377
X235.348 Y169.53 Z-25.155 B45. C229.841
X233.976 Y170.459 Z-25.288 C233.302
X232.547 Y171.321 Z-25.414 C236.764
X231.06 Y172.114 Z-25.535 C240.231
X229.526 Y172.828 Z-25.648 C243.68
X227.947 Y173.463 Z-25.754 C247.116
X226.323 Y174.015 Z-25.853 C250.547
X224.657 Y174.481 Z-25.947 C253.963
X222.949 Y174.859 Z-26.034 C257.378
X220.418 Y175.256 Z-26.156 C260.607
X215.23 Y175.874 Z-26.401 C262.771
X209.64 Y176.407 Z-26.589 C264.595
X203.414 Y176.859 Z-26.726 C266.184
X196.551 Y177.211 Z-26.815 C267.519
X188.435 Y177.469 Z-26.869 C268.664
X178.437 Y177.616 Z-26.893 C269.559
X156.563 Y177.647 Z-26.897 C270.
X102.813 Y177.624 Z-26.895 C270.361
X92.815 Y177.496 Z-26.874 C271.195
X84.698 Y177.261 Z-26.826 C272.276
X77.833 Y176.934 Z-26.746 C273.561
X71.604 Y176.508 Z-26.622 C275.042
X66.008 Y176.003 Z-26.449 C276.794
X61.021 Y175.441 Z-26.231 C278.733
X57.903 Y175.012 Z-26.074 C281.128
X56.193 Y174.682 Z-25.991 C284.516
X54.504 Y174.259 Z-25.901 C287.944
X52.861 Y173.75 Z-25.805 C291.373
X51.258 Y173.156 Z-25.702 C294.813
X49.701 Y172.481 Z-25.592 C298.267
X48.189 Y171.726 Z-25.475 C301.737
X46.731 Y170.899 Z-25.352 C305.209
X45.331 Y170.003 Z-25.222 C308.681
X43.989 Y169.042 Z-25.086 B44.688 C312.152
X42.704 Y168.016 Z-24.943 B43.272 C315.625
X41.483 Y166.935 Z-24.795 B41.864 C319.075
X40.326 Y165.801 Z-24.641 B40.465 C322.503
X38.72 Y164.019 Z-24.405 B38.395 C327.569
X37.253 Y162.128 Z-24.159 B36.337 C332.523
X35.944 Y160.171 Z-23.912 B34.344 C337.292
X34.775 Y158.131 Z-23.664 B32.39 C341.83
X33.751 Y156.033 Z-23.422 B30.512 C346.046
X32.871 Y153.887 Z-23.191 B28.727 C349.831
X32.363 Y152.436 Z-23.047 B27.61 C352.084
X31.955 Y151.142 Z-22.925 B26.653 C353.048
/9M475 (WIRE FEED OFF)
/9G910 E#800 (LASER AT IDLE)
X54.219 Y148.427 Z21.762 F[[#881]+11750.]
X54.22 Y51.572 Z21.761 B26.654 C6.953
X31.955 Y48.857 Z-22.925
/9G910 E#801 (LASER BACK TO FULL POWER)
/9M474 (WIRE FEED ON)
X32.609 Y46.837 Z-23.118 B28.121 C9.435 F#881
X33.442 Y44.678 Z-23.343 B29.866 C13.032
X34.417 Y42.563 Z-23.582 B31.714 C17.096
X35.537 Y40.503 Z-23.829 B33.646 C21.512
X36.799 Y38.517 Z-24.077 B35.631 C26.199
X38.218 Y36.598 Z-24.324 B37.676 C31.084
X39.772 Y34.784 Z-24.563 B39.739 C36.096
X40.896 Y33.626 Z-24.719 B41.135 C39.495
X42.086 Y32.517 Z-24.87 B42.543 C42.928
X43.338 Y31.464 Z-25.015 B43.956 C46.377
X44.652 Y30.47 Z-25.155 B45. C49.841
X46.024 Y29.541 Z-25.288 C53.302
X47.453 Y28.679 Z-25.414 C56.764
X48.94 Y27.886 Z-25.535 C60.231
X50.474 Y27.172 Z-25.648 C63.68
X52.053 Y26.537 Z-25.754 C67.116
X53.677 Y25.985 Z-25.853 C70.547
X55.343 Y25.519 Z-25.947 C73.963
X57.051 Y25.141 Z-26.034 C77.378
X59.582 Y24.744 Z-26.156 C80.532
/9M475 (WIRE FEED OFF)
/9G910 E#800 (LASER AT IDLE)
X59.884 Y23.02 Z-23.7 C84.71 F[[#881]+11750.]
/9G910 E#801 (LASER BACK TO FULL POWER)
/9M474 (WIRE FEED ON)
X65.642 Y22.607 Z-23.809 C86.454 F#881
X70.633 Y22.36 Z-23.863 C87.641
X77.501 Y22.161 Z-23.899 C88.931
X85.625 Y22.092 Z-23.909 C90.
X198.75 Y22.11 Z-23.907 C90.51
X206.247 Y22.251 Z-23.884 C91.725
X212.486 Y22.503 Z-23.833 C93.09
X218.099 Y22.858 Z-23.745 C94.622
X221.835 Y23.185 Z-23.665 C97.053
X223.639 Y23.443 Z-23.626 C100.249
X225.445 Y23.804 Z-23.582 C103.495
X227.209 Y24.258 Z-23.534 C106.74
X228.938 Y24.805 Z-23.481 C109.981
X230.625 Y25.442 Z-23.424 C113.225
X232.268 Y26.165 Z-23.361 C116.47
X233.864 Y26.973 Z-23.293 C119.719
X235.403 Y27.859 Z-23.22 C122.952
X236.885 Y28.819 Z-23.141 C126.18
X238.311 Y29.855 Z-23.058 C129.399
X239.671 Y30.955 Z-22.97 C132.594
X240.967 Y32.118 Z-22.877 C135.764
X242.195 Y33.34 Z-22.78 C138.904
X243.345 Y34.606 Z-22.681 C141.989
X244.438 Y35.935 Z-22.578 C145.039
X245.453 Y37.3 Z-22.473 C148.029
X246.397 Y38.706 Z-22.368 C150.947
X247.683 Y40.889 Z-22.208 C155.182
X248.81 Y43.142 Z-22.051 B43.506 C159.212
X249.777 Y45.451 Z-21.901 B41.873 C162.988
X250.586 Y47.801 Z-21.764 B40.407 C166.485
X251.246 Y50.197 Z-21.642 B39.133 C169.7
X251.754 Y52.615 Z-21.542 B38.094 C172.622
X252.117 Y55.063 Z-21.467 B37.315 C175.296
X252.334 Y57.529 Z-21.421 B36.833 C177.776
X252.408 Y59.876 Z-21.404 B36.682 C179.699
X252.397 Y140.878 Z-21.407 B36.693 C181.
X252.278 Y143.292 Z-21.433 B36.954 C183.341
X252.012 Y145.756 Z-21.489 B37.534 C185.901
X251.59 Y148.227 Z-21.577 B38.393 C188.576
X251.044 Y150.603 Z-21.68 B39.519 C191.629
X250.333 Y152.988 Z-21.808 B40.861 C194.928
X249.472 Y155.325 Z-21.95 B42.385 C198.508
X248.452 Y157.615 Z-22.102 B44.066 C202.363
X247.272 Y159.847 Z-22.261 B45. C206.45
X245.932 Y162.004 Z-22.421 C210.739
X244.957 Y163.384 Z-22.526 C213.676
X243.899 Y164.737 Z-22.63 C216.692
X242.779 Y166.033 Z-22.731 C219.757
X241.589 Y167.278 Z-22.829 C222.861
X240.328 Y168.47 Z-22.924 C226.004
X238.999 Y169.604 Z-23.014 C229.185
X237.605 Y170.672 Z-23.1 C232.383
X236.152 Y171.67 Z-23.181 C235.599
X234.64 Y172.594 Z-23.257 C238.82
X233.074 Y173.44 Z-23.327 C242.053
X231.451 Y174.208 Z-23.393 C245.299
X229.786 Y174.888 Z-23.453 C248.535
X228.08 Y175.479 Z-23.508 C251.766
X226.334 Y175.98 Z-23.558 C255.004
X224.548 Y176.388 Z-23.605 C258.239
X222.731 Y176.699 Z-23.646 C261.474
X220.116 Y176.98 Z-23.7 C264.71
X214.358 Y177.393 Z-23.809 C266.454
X209.367 Y177.64 Z-23.863 C267.641
X202.499 Y177.839 Z-23.899 C268.931
X194.375 Y177.908 Z-23.909 C270.
X81.25 Y177.89 Z-23.907 C270.51
X73.753 Y177.749 Z-23.884 C271.725
X67.514 Y177.497 Z-23.833 C273.09
X61.901 Y177.142 Z-23.745 C274.622
X58.165 Y176.815 Z-23.665 C277.053
X56.361 Y176.557 Z-23.626 C280.249
X54.555 Y176.196 Z-23.582 C283.495
X52.791 Y175.742 Z-23.534 C286.74
X51.062 Y175.195 Z-23.481 C289.981
X49.375 Y174.558 Z-23.424 C293.225
X47.732 Y173.835 Z-23.361 C296.47
X46.136 Y173.027 Z-23.293 C299.719
X44.597 Y172.141 Z-23.22 C302.952
X43.115 Y171.181 Z-23.141 C306.18
X41.689 Y170.145 Z-23.058 C309.399
X40.329 Y169.045 Z-22.97 C312.594
X39.033 Y167.882 Z-22.877 C315.764
X37.805 Y166.66 Z-22.78 C318.904
X36.655 Y165.394 Z-22.681 C321.989
X35.562 Y164.065 Z-22.578 C325.039
X34.547 Y162.7 Z-22.473 C328.029
X33.603 Y161.294 Z-22.368 C330.947
X32.317 Y159.111 Z-22.208 C335.182
X31.19 Y156.858 Z-22.051 B43.506 C339.212
X30.223 Y154.549 Z-21.901 B41.873 C342.988
X29.414 Y152.199 Z-21.764 B40.407 C346.485
X28.754 Y149.803 Z-21.642 B39.133 C349.7
X28.246 Y147.385 Z-21.542 B38.094 C352.622
X27.883 Y144.937 Z-21.467 B37.315 C355.296
X27.666 Y142.471 Z-21.421 B36.833 C357.776
X27.592 Y140.127 Z-21.404 B36.681 C359.701
X27.603 Y59.121 Z-21.407 B36.693 C1.
X27.722 Y56.708 Z-21.433 B36.954 C3.341
X27.988 Y54.244 Z-21.489 B37.534 C5.901
X28.41 Y51.773 Z-21.577 B38.393 C8.576
X28.956 Y49.397 Z-21.68 B39.519 C11.629
X29.667 Y47.012 Z-21.808 B40.861 C14.928
X30.528 Y44.675 Z-21.95 B42.385 C18.508
X31.548 Y42.385 Z-22.102 B44.066 C22.363
X32.728 Y40.153 Z-22.261 B45. C26.45
X34.068 Y37.996 Z-22.421 C30.739
X35.043 Y36.616 Z-22.526 C33.676
X36.101 Y35.263 Z-22.63 C36.692
X37.221 Y33.967 Z-22.731 C39.757
X38.411 Y32.722 Z-22.829 C42.861
X39.672 Y31.53 Z-22.924 C46.004
X41.001 Y30.396 Z-23.014 C49.185
X42.395 Y29.328 Z-23.1 C52.383
X43.848 Y28.33 Z-23.181 C55.599
X45.36 Y27.406 Z-23.257 C58.82
X46.926 Y26.56 Z-23.327 C62.053
X48.549 Y25.792 Z-23.393 C65.299
X50.214 Y25.112 Z-23.453 C68.535
X51.92 Y24.521 Z-23.508 C71.766
X53.666 Y24.02 Z-23.558 C75.004
X55.452 Y23.612 Z-23.605 C78.239
X57.269 Y23.301 Z-23.646 C81.474
X59.884 Y23.02 Z-23.7 C84.687
/9M475 (WIRE FEED OFF)
/9G910 E#800 (LASER AT IDLE)
X59.455 Y21.988 Z-20.898 C87.742 F[[#881]+11750.]
/9G910 E#801 (LASER BACK TO FULL POWER)
/9M474 (WIRE FEED ON)
X65.313 Y21.85 Z-20.918 C89.322 F#881
X214.687 C90.676
X220.579 Y21.99 Z-20.898 C92.343
X222.381 Y22.109 Z-20.89 C95.314
X224.263 Y22.334 Z-20.878 C98.445
X226.133 Y22.662 Z-20.864 C101.596
X227.969 Y23.088 Z-20.847 C104.745
X229.773 Y23.611 Z-20.828 C107.888
X231.543 Y24.23 Z-20.806 C111.037
X233.274 Y24.943 Z-20.781 C114.187
X234.955 Y25.744 Z-20.752 C117.325
X236.584 Y26.63 Z-20.719 C120.452
X238.159 Y27.6 Z-20.683 C123.576
X239.681 Y28.651 Z-20.643 C126.692
X241.137 Y29.775 Z-20.6 C129.784
X242.525 Y30.968 Z-20.553 C132.849
X243.846 Y32.227 Z-20.503 C135.897
X245.09 Y33.541 Z-20.452 C138.893
X246.273 Y34.924 Z-20.397 C141.871
X247.372 Y36.346 Z-20.34 C144.796
X248.401 Y37.824 Z-20.282 C147.677
X249.352 Y39.34 Z-20.222 C150.5
X250.23 Y40.901 Z-20.162 C153.276
X251.03 Y42.495 Z-20.103 C155.986
X251.752 Y44.118 Z-20.046 C158.624
X252.692 Y46.596 Z-19.965 C162.449
X253.465 Y49.133 Z-19.892 C166.124
X254.067 Y51.7 Z-19.831 C169.639
X254.505 Y54.3 Z-19.784 C173.029
X254.778 Y56.929 Z-19.753 C176.33
X254.887 Y59.485 Z-19.741 C179.263
Y140.533 C180.757
X254.778 Y143.072 Z-19.753 C183.876
X254.505 Y145.7 Z-19.784 C187.174
X254.237 Y147.391 Z-19.815 C189.418
X253.684 Y150.015 Z-19.87 C192.883
X252.968 Y152.563 Z-19.94 C196.498
X252.085 Y155.06 Z-20.018 C200.263
X251.4 Y156.698 Z-20.075 C202.862
X250.639 Y158.306 Z-20.133 C205.533
X249.801 Y159.883 Z-20.192 C208.267
X248.886 Y161.422 Z-20.252 C211.06
X247.893 Y162.924 Z-20.311 C213.911
X246.833 Y164.369 Z-20.368 C216.808
X245.691 Y165.774 Z-20.425 C219.747
X244.475 Y167.125 Z-20.478 C222.74
X243.196 Y168.409 Z-20.529 C225.748
X241.84 Y169.636 Z-20.577 C228.798
X240.415 Y170.797 Z-20.622 C231.874
X238.929 Y171.884 Z-20.663 C234.969
X237.38 Y172.894 Z-20.701 C238.081
X235.777 Y173.823 Z-20.736 C241.202
X234.122 Y174.667 Z-20.767 C244.326
X232.41 Y175.427 Z-20.794 C247.475
X230.663 Y176.091 Z-20.818 C250.61
X228.879 Y176.662 Z-20.838 C253.742
X227.056 Y177.137 Z-20.856 C256.886
X225.202 Y177.515 Z-20.871 C260.033
X223.313 Y177.793 Z-20.884 C263.184
X221.441 Y177.965 Z-20.894 C266.276
X217.187 Y178.109 Z-20.912 C268.758
X210.938 Y178.17 Z-20.92 C270.
X65.313 Y178.15 Z-20.918 C270.676
X59.421 Y178.01 Z-20.898 C272.343
X57.619 Y177.891 Z-20.89 C275.314
X55.737 Y177.666 Z-20.878 C278.445
X53.867 Y177.338 Z-20.864 C281.596
X52.031 Y176.912 Z-20.847 C284.745
X50.227 Y176.389 Z-20.828 C287.888
X48.457 Y175.77 Z-20.806 C291.037
X46.726 Y175.057 Z-20.781 C294.187
X45.045 Y174.256 Z-20.752 C297.325
X43.416 Y173.37 Z-20.719 C300.452
X41.841 Y172.4 Z-20.683 C303.576
X40.319 Y171.349 Z-20.643 C306.692
X38.863 Y170.225 Z-20.6 C309.784
X37.475 Y169.032 Z-20.553 C312.849
X36.154 Y167.773 Z-20.503 C315.897
X34.91 Y166.459 Z-20.452 C318.893
X33.727 Y165.076 Z-20.397 C321.871
X32.628 Y163.654 Z-20.34 C324.796
X31.599 Y162.176 Z-20.282 C327.677
X30.648 Y160.66 Z-20.222 C330.5
X29.77 Y159.099 Z-20.162 C333.276
X28.97 Y157.505 Z-20.103 C335.986
X28.248 Y155.882 Z-20.046 C338.624
X27.308 Y153.404 Z-19.965 C342.449
X26.535 Y150.867 Z-19.892 C346.124
X25.933 Y148.3 Z-19.831 C349.639
X25.495 Y145.7 Z-19.784 C353.029
X25.222 Y143.071 Z-19.753 C356.33
X25.113 Y140.517 Z-19.741 C359.263
Y59.465 C.757
X25.222 Y56.928 Z-19.753 C3.876
X25.495 Y54.3 Z-19.784 C7.174
X25.763 Y52.609 Z-19.815 C9.418
X26.316 Y49.985 Z-19.87 C12.883
X27.032 Y47.437 Z-19.94 C16.498
X27.915 Y44.94 Z-20.018 C20.263
X28.6 Y43.302 Z-20.075 C22.862
X29.361 Y41.694 Z-20.133 C25.533
X30.199 Y40.117 Z-20.192 C28.267
X31.114 Y38.578 Z-20.252 C31.06
X32.107 Y37.076 Z-20.311 C33.911
X33.167 Y35.631 Z-20.368 C36.808
X34.309 Y34.226 Z-20.425 C39.747
X35.525 Y32.875 Z-20.478 C42.74
X36.804 Y31.591 Z-20.529 C45.748
X38.16 Y30.364 Z-20.577 C48.798
X39.585 Y29.203 Z-20.622 C51.874
X41.071 Y28.116 Z-20.663 C54.969
X42.62 Y27.106 Z-20.701 C58.081
X44.223 Y26.177 Z-20.736 C61.202
X45.878 Y25.333 Z-20.767 C64.326
X47.59 Y24.573 Z-20.794 C67.475
X49.337 Y23.909 Z-20.818 C70.61
X51.121 Y23.338 Z-20.838 C73.742
X52.944 Y22.863 Z-20.856 C76.886
X54.798 Y22.485 Z-20.871 C80.033
X56.687 Y22.207 Z-20.884 C83.184
X58.559 Y22.035 Z-20.894 C86.276
X59.455 Y21.988 Z-20.898 C87.713
/9M475 (WIRE FEED OFF)
/9G910 E#800 (LASER AT IDLE)
X59.872 Y21.569 Z-17.932 C89.801 F[[#881]+11750.]
/9G910 E#801 (LASER BACK TO FULL POWER)
/9M474 (WIRE FEED ON)
X221.011 Y21.582 Z-17.933 C91.511 F#881
X222.884 Y21.677 C94.308
X224.813 Y21.872 C97.195
X226.716 Y22.16 C100.065
X228.591 Y22.545 C103.148
X230.434 Y23.028 Z-17.932 C106.24
X232.256 Y23.613 Z-17.929 C109.35
X234.053 Y24.299 Z-17.925 C112.473
X235.793 Y25.074 Z-17.92 C115.567
X237.487 Y25.94 Z-17.912 C118.659
X239.131 Y26.896 Z-17.903 C121.741
X240.724 Y27.939 Z-17.891 C124.825
X242.257 Y29.064 Z-17.878 C127.888
X243.72 Y30.262 Z-17.863 C130.93
X245.116 Y31.533 Z-17.845 C133.954
X246.441 Y32.872 Z-17.827 C136.945
X247.699 Y34.281 Z-17.805 C139.92
X248.87 Y35.736 Z-17.782 C142.854
X249.974 Y37.26 Z-17.758 C145.763
X250.993 Y38.824 Z-17.733 C148.627
X251.936 Y40.44 Z-17.706 C151.461
X252.796 Y42.095 Z-17.68 C154.253
X253.575 Y43.787 Z-17.654 C156.999
X254.269 Y45.505 Z-17.629 C159.698
X254.883 Y47.257 Z-17.605 C162.355
X255.415 Y49.032 Z-17.582 C164.977
X255.863 Y50.824 Z-17.563 C167.55
X256.231 Y52.634 Z-17.546 C170.096
X256.517 Y54.463 Z-17.532 C172.613
X256.722 Y56.308 Z-17.522 C175.117
X256.844 Y58.146 Z-17.516 C177.582
X256.886 Y61.246 Z-17.513 C180.
X256.874 Y140.971 Z-17.515 C181.362
X256.722 Y143.692 Z-17.522 C185.012
X256.517 Y145.537 Z-17.532 C187.515
X256.231 Y147.366 Z-17.546 C190.116
X255.65 Y150.073 Z-17.572 C193.853
X255.16 Y151.856 Z-17.593 C196.447
X254.585 Y153.626 Z-17.617 C199.087
X253.932 Y155.357 Z-17.641 C201.757
X253.195 Y157.065 Z-17.667 C204.477
X252.377 Y158.735 Z-17.693 C207.237
X251.475 Y160.372 Z-17.72 C210.048
X250.492 Y161.967 Z-17.746 C212.896
X249.431 Y163.509 Z-17.771 C215.771
X248.294 Y164.998 Z-17.793 C218.693
X247.08 Y166.43 Z-17.816 C221.634
X245.785 Y167.808 Z-17.836 C224.62
X244.431 Y169.108 Z-17.854 C227.616
X242.995 Y170.347 Z-17.871 C230.65
X241.498 Y171.509 Z-17.885 C233.691
X239.939 Y172.59 Z-17.897 C236.753
X238.316 Y173.593 Z-17.908 C239.839
X236.643 Y174.506 Z-17.916 C242.926
X234.924 Y175.327 Z-17.923 C246.013
X233.157 Y176.057 Z-17.927 C249.112
X231.358 Y176.689 Z-17.93 C252.206
X229.52 Y177.224 Z-17.932 C255.306
X227.649 Y177.661 Z-17.933 C258.412
X225.758 Y177.997 C261.383
X223.842 Y178.239 Z-17.934 C264.259
X221.938 Y178.382 Z-17.933 C267.106
X219.409 Y178.431 Z-17.932 C269.998
X58.989 Y178.418 Z-17.933 C271.511
X57.116 Y178.323 C274.308
X55.187 Y178.128 C277.195
X53.284 Y177.84 C280.065
X51.409 Y177.455 C283.148
X49.566 Y176.972 Z-17.932 C286.24
X47.744 Y176.387 Z-17.929 C289.35
X45.947 Y175.701 Z-17.925 C292.473
X44.207 Y174.926 Z-17.92 C295.567
X42.513 Y174.06 Z-17.912 C298.659
X40.869 Y173.104 Z-17.903 C301.741
X39.276 Y172.061 Z-17.891 C304.825
X37.743 Y170.936 Z-17.878 C307.888
X36.28 Y169.738 Z-17.863 C310.93
X34.884 Y168.467 Z-17.845 C313.954
X33.559 Y167.128 Z-17.827 C316.945
X32.301 Y165.719 Z-17.805 C319.92
X31.13 Y164.264 Z-17.782 C322.854
X30.026 Y162.74 Z-17.758 C325.763
X29.007 Y161.176 Z-17.733 C328.627
X28.064 Y159.56 Z-17.706 C331.461
X27.204 Y157.905 Z-17.68 C334.253
X26.425 Y156.213 Z-17.654 C336.999
X25.731 Y154.495 Z-17.629 C339.698
X25.117 Y152.743 Z-17.605 C342.355
X24.585 Y150.968 Z-17.582 C344.977
X24.137 Y149.176 Z-17.563 C347.55
X23.769 Y147.366 Z-17.546 C350.096
X23.483 Y145.537 Z-17.532 C352.613
X23.278 Y143.692 Z-17.522 C355.117
X23.156 Y141.854 Z-17.516 C357.582
X23.115 Y138.754 Z-17.513 C0.
X23.126 Y59.029 Z-17.515 C1.362
X23.278 Y56.308 Z-17.522 C5.012
X23.483 Y54.463 Z-17.532 C7.515
X23.769 Y52.634 Z-17.546 C10.116
X24.35 Y49.927 Z-17.572 C13.853
X24.84 Y48.144 Z-17.593 C16.447
X25.415 Y46.374 Z-17.617 C19.087
X26.068 Y44.643 Z-17.641 C21.757
X26.805 Y42.935 Z-17.667 C24.477
X27.623 Y41.265 Z-17.693 C27.237
X28.525 Y39.628 Z-17.72 C30.048
X29.508 Y38.033 Z-17.746 C32.896
X30.569 Y36.491 Z-17.771 C35.771
X31.706 Y35.002 Z-17.793 C38.693
X32.92 Y33.57 Z-17.816 C41.634
X34.215 Y32.192 Z-17.836 C44.62
X35.569 Y30.892 Z-17.854 C47.616
X37.005 Y29.653 Z-17.871 C50.65
X38.502 Y28.491 Z-17.885 C53.691
X40.061 Y27.41 Z-17.897 C56.753
X41.684 Y26.407 Z-17.908 C59.839
X43.357 Y25.494 Z-17.916 C62.926
X45.076 Y24.673 Z-17.923 C66.013
X46.843 Y23.943 Z-17.927 C69.112
X48.642 Y23.311 Z-17.93 C72.206
X50.48 Y22.776 Z-17.932 C75.306
X52.351 Y22.339 Z-17.933 C78.412
X54.242 Y22.003 C81.383
X56.158 Y21.761 Z-17.934 C84.259
X58.062 Y21.618 Z-17.933 C87.106
X59.872 Y21.569 Z-17.932 C89.801
/9M475 (WIRE FEED OFF)
/9G910 E#800 (LASER AT IDLE)
X59.465 Y21.311 Z-14.944 C89.2 F[[#881]+11750.]
/9G910 E#801 (LASER BACK TO FULL POWER)
/9M474 (WIRE FEED ON)
X220.565 Y21.312 C90.841 F#881
X222.428 Y21.384 C93.597
X224.349 Y21.553 C96.455
X226.284 Y21.821 Z-14.945 C99.345
X228.164 Y22.179 C102.181
X230.039 Y22.632 C105.039
X231.903 Y23.184 Z-14.944 C107.919
X233.714 Y23.819 Z-14.945 C110.757
X235.505 Y24.55 C113.623
X237.239 Y25.36 C116.458
X238.942 Y26.261 C119.318
X240.604 Y27.249 C122.178
X242.212 Y28.318 Z-14.946 C125.036
X243.754 Y29.457 C127.925
X245.244 Y30.684 Z-14.944 C130.993
X246.658 Y31.98 C134.025
X248.007 Y33.354 Z-14.941 C137.037
X249.277 Y34.791 Z-14.937 C140.04
X250.475 Y36.299 Z-14.934 C143.012
X251.587 Y37.855 Z-14.929 C145.952
X252.624 Y39.475 Z-14.922 C148.879
X253.578 Y41.147 Z-14.916 C151.784
X254.442 Y42.857 Z-14.909 C154.643
X255.22 Y44.605 Z-14.902 C157.482
X255.909 Y46.386 Z-14.895 C160.277
X256.515 Y48.207 Z-14.888 C163.071
X257.029 Y50.049 Z-14.881 C165.822
X257.455 Y51.911 Z-14.876 C168.558
X257.791 Y53.795 Z-14.871 C171.271
X258.039 Y55.698 Z-14.868 C173.982
X258.197 Y57.604 Z-14.865 C176.67
X258.267 Y60.251 Z-14.864 C179.996
X258.264 Y140.558 C180.817
X258.197 Y142.397 Z-14.865 C183.397
X258.039 Y144.302 Z-14.868 C186.083
X257.791 Y146.205 Z-14.871 C188.793
X257.455 Y148.089 Z-14.876 C191.665
X257.029 Y149.951 Z-14.881 C194.236
X256.515 Y151.793 Z-14.888 C196.99
X255.909 Y153.614 Z-14.895 C199.773
X255.22 Y155.395 Z-14.902 C202.569
X254.442 Y157.143 Z-14.909 C205.402
X253.578 Y158.853 Z-14.916 C208.259
X252.624 Y160.525 Z-14.922 C211.164
X251.587 Y162.145 Z-14.929 C214.08
X250.475 Y163.701 Z-14.934 C217.009
X249.277 Y165.209 Z-14.937 C219.989
X248.007 Y166.646 Z-14.941 C222.978
X246.658 Y168.02 Z-14.944 C225.983
X245.244 Y169.316 C229.02
X243.754 Y170.543 Z-14.946 C232.076
X242.212 Y171.682 C234.963
X240.604 Y172.751 Z-14.945 C237.829
X238.942 Y173.739 C240.689
X237.239 Y174.64 C243.543
X235.505 Y175.45 C246.376
X233.714 Y176.181 C249.24
X231.903 Y176.816 Z-14.944 C252.086
X230.039 Y177.368 Z-14.945 C254.963
X228.164 Y177.821 C257.818
X226.284 Y178.179 C260.65
X224.349 Y178.447 Z-14.944 C263.545
X222.427 Y178.616 C266.403
X220.535 Y178.689 C269.203
X59.435 Y178.688 C270.841
X57.572 Y178.616 C273.597
X55.651 Y178.447 C276.455
X53.716 Y178.179 Z-14.945 C279.345
X51.836 Y177.821 C282.181
X49.961 Y177.368 C285.039
X48.097 Y176.816 Z-14.944 C287.919
X46.286 Y176.181 Z-14.945 C290.757
X44.495 Y175.45 C293.623
X42.761 Y174.64 C296.458
X41.058 Y173.739 C299.318
X39.396 Y172.751 C302.178
X37.788 Y171.682 Z-14.946 C305.036
X36.246 Y170.543 C307.925
X34.756 Y169.316 Z-14.944 C310.993
X33.342 Y168.02 C314.025
X31.993 Y166.646 Z-14.941 C317.037
X30.723 Y165.209 Z-14.937 C320.04
X29.525 Y163.701 Z-14.934 C323.012
X28.413 Y162.145 Z-14.929 C325.952
X27.376 Y160.525 Z-14.922 C328.879
X26.422 Y158.853 Z-14.916 C331.784
X25.558 Y157.143 Z-14.909 C334.643
X24.78 Y155.395 Z-14.902 C337.482
X24.091 Y153.614 Z-14.895 C340.277
X23.485 Y151.793 Z-14.888 C343.071
X22.971 Y149.951 Z-14.881 C345.822
X22.545 Y148.089 Z-14.876 C348.558
X22.209 Y146.205 Z-14.871 C351.271
X21.961 Y144.302 Z-14.868 C353.982
X21.803 Y142.396 Z-14.865 C356.67
X21.733 Y139.749 Z-14.864 C359.996
X21.736 Y59.442 C.817
X21.803 Y57.603 Z-14.865 C3.397
X21.961 Y55.698 Z-14.868 C6.083
X22.209 Y53.795 Z-14.871 C8.793
X22.545 Y51.911 Z-14.876 C11.665
X22.971 Y50.049 Z-14.881 C14.236
X23.485 Y48.207 Z-14.888 C16.99
X24.091 Y46.386 Z-14.895 C19.773
X24.78 Y44.605 Z-14.902 C22.569
X25.558 Y42.857 Z-14.909 C25.402
X26.422 Y41.147 Z-14.916 C28.259
X27.376 Y39.475 Z-14.922 C31.164
X28.413 Y37.855 Z-14.929 C34.08
X29.525 Y36.299 Z-14.934 C37.009
X30.723 Y34.791 Z-14.937 C39.989
X31.993 Y33.354 Z-14.941 C42.978
X33.342 Y31.98 Z-14.944 C45.983
X34.756 Y30.684 C49.02
X36.246 Y29.457 Z-14.946 C52.076
X37.788 Y28.318 C54.963
X39.396 Y27.249 Z-14.945 C57.829
X41.058 Y26.261 C60.689
X42.761 Y25.36 C63.543
X44.495 Y24.55 C66.376
X46.286 Y23.819 C69.24
X48.097 Y23.184 Z-14.944 C72.086
X49.961 Y22.632 Z-14.945 C74.963
X51.836 Y22.179 C77.818
X53.716 Y21.821 C80.65
X55.651 Y21.553 Z-14.944 C83.545
X57.573 Y21.384 C86.403
X59.465 Y21.311 C89.203
/9M475 (WIRE FEED OFF)
/9G910 E#800 (LASER AT IDLE)
X59.892 Y21.046 Z-11.955 C89.836 F[[#881]+11750.]
/9G910 E#801 (LASER BACK TO FULL POWER)
/9M474 (WIRE FEED ON)
X221.002 Y21.059 C91.477 F#881
X222.918 Y21.155 C94.296
X224.869 Y21.351 Z-11.956 C97.18
X226.794 Y21.643 C100.043
X228.698 Y22.029 C102.9
X230.569 Y22.507 C105.742
X232.424 Y23.08 C108.603
X234.264 Y23.751 C111.477
X236.042 Y24.503 C114.32
X237.794 Y25.348 C117.179
X239.488 Y26.271 C120.02
X241.151 Y27.288 C122.896
X242.752 Y28.381 C125.743
X244.297 Y29.553 Z-11.957 C128.582
X245.778 Y30.795 Z-11.956 C131.438
X247.203 Y32.118 Z-11.957 C134.294
X248.555 Y33.504 Z-11.956 C137.138
X249.832 Y34.95 C139.988
X251.047 Y36.474 Z-11.957 C142.842
X252.174 Y38.04 C145.675
X253.23 Y39.673 Z-11.956 C148.543
X254.201 Y41.353 C151.402
X255.09 Y43.085 C154.263
X255.888 Y44.851 C157.117
X256.596 Y46.653 C159.959
X257.215 Y48.492 C162.817
X257.742 Y50.358 C165.669
X258.177 Y52.259 C168.55
X258.515 Y54.176 C171.422
X258.759 Y56.116 Z-11.955 C174.299
X258.903 Y58.043 C177.133
X258.952 Y60.607 Z-11.954 C179.999
X258.939 Y141.002 Z-11.955 C181.47
X258.843 Y142.917 C184.283
X258.648 Y144.867 C187.158
X258.357 Y146.794 Z-11.956 C190.028
X257.971 Y148.697 C192.896
X257.493 Y150.569 C195.742
X256.92 Y152.424 C198.603
X256.249 Y154.264 C201.477
X255.497 Y156.042 C204.32
X254.652 Y157.794 C207.179
X253.729 Y159.488 C210.02
X252.712 Y161.151 C212.896
X251.619 Y162.752 C215.743
X250.447 Y164.297 Z-11.957 C218.582
X249.205 Y165.778 Z-11.956 C221.438
X247.882 Y167.203 Z-11.957 C224.294
X246.496 Y168.555 Z-11.956 C227.138
X245.05 Y169.832 C229.988
X243.526 Y171.047 Z-11.957 C232.842
X241.96 Y172.174 C235.675
X240.327 Y173.23 Z-11.956 C238.543
X238.647 Y174.201 C241.402
X236.915 Y175.09 C244.263
X235.149 Y175.888 C247.117
X233.347 Y176.596 C249.959
X231.508 Y177.215 C252.817
X229.642 Y177.742 C255.671
X227.741 Y178.177 C258.538
X225.824 Y178.516 C261.401
X223.885 Y178.76 Z-11.955 C264.276
X221.957 Y178.905 Z-11.956 C267.118
X219.393 Y178.954 Z-11.954 C269.999
X58.998 Y178.941 Z-11.955 C271.477
X57.082 Y178.845 C274.296
X55.131 Y178.649 Z-11.956 C277.18
X53.206 Y178.357 C280.043
X51.302 Y177.971 C282.9
X49.431 Y177.493 C285.742
X47.576 Y176.92 C288.603
X45.736 Y176.249 C291.477
X43.958 Y175.497 C294.32
X42.206 Y174.652 C297.179
X40.512 Y173.729 C300.02
X38.849 Y172.712 C302.896
X37.248 Y171.619 C305.743
X35.703 Y170.447 Z-11.957 C308.582
X34.222 Y169.205 Z-11.956 C311.438
X32.797 Y167.882 Z-11.957 C314.294
X31.445 Y166.496 Z-11.956 C317.138
X30.168 Y165.05 C319.988
X28.953 Y163.526 Z-11.957 C322.842
X27.826 Y161.96 C325.675
X26.77 Y160.327 Z-11.956 C328.543
X25.799 Y158.647 C331.402
X24.91 Y156.915 C334.263
X24.112 Y155.149 C337.117
X23.404 Y153.347 C339.959
X22.785 Y151.508 C342.817
X22.258 Y149.642 C345.669
X21.823 Y147.741 C348.55
X21.485 Y145.824 C351.422
X21.241 Y143.884 Z-11.955 C354.299
X21.097 Y141.957 C357.133
X21.048 Y139.393 Z-11.954 C359.999
X21.061 Y58.998 Z-11.955 C1.47
X21.157 Y57.083 C4.283
X21.352 Y55.133 C7.158
X21.643 Y53.206 Z-11.956 C10.028
X22.029 Y51.303 C12.896
X22.507 Y49.431 C15.742
X23.08 Y47.576 C18.603
X23.751 Y45.736 C21.477
X24.503 Y43.958 C24.32
X25.348 Y42.206 C27.179
X26.271 Y40.512 C30.02
X27.288 Y38.849 C32.896
X28.381 Y37.248 C35.743
X29.553 Y35.703 Z-11.957 C38.582
X30.795 Y34.222 Z-11.956 C41.438
X32.118 Y32.797 Z-11.957 C44.294
X33.504 Y31.445 Z-11.956 C47.138
X34.95 Y30.168 C49.988
X36.474 Y28.953 Z-11.957 C52.842
X38.04 Y27.826 C55.675
X39.673 Y26.77 Z-11.956 C58.543
X41.353 Y25.799 C61.402
X43.085 Y24.91 C64.263
X44.851 Y24.112 C67.117
X46.653 Y23.404 C69.959
X48.492 Y22.785 C72.817
X50.358 Y22.258 C75.671
X52.259 Y21.823 C78.538
X54.176 Y21.484 C81.401
X56.115 Y21.24 Z-11.955 C84.276
X58.043 Y21.095 Z-11.956 C87.118
X59.892 Y21.046 Z-11.955 C89.835
/9M475 (WIRE FEED OFF)
/9G910 E#800 (LASER AT IDLE)
X59.483 Y20.788 Z-8.966 C89.238 F[[#881]+11750.]
/9G910 E#801 (LASER BACK TO FULL POWER)
/9M474 (WIRE FEED ON)
X220.542 C90.795 F#881
X222.455 Y20.861 Z-8.967 C93.588
X224.4 Y21.032 C96.443
X226.355 Y21.303 C99.326
X228.261 Y21.665 C102.163
X230.164 Y22.124 C105.021
X232.052 Y22.682 C107.899
X233.886 Y23.325 C110.737
X235.705 Y24.067 C113.608
X237.462 Y24.887 C116.442
X239.191 Y25.801 C119.306
X240.874 Y26.802 C122.163
X242.506 Y27.886 Z-8.968 C125.023
X244.069 Y29.04 C127.851
X245.586 Y30.281 Z-8.967 C130.732
X247.03 Y31.588 Z-8.968 C133.575
X248.412 Y32.97 C136.426
X249.719 Y34.414 Z-8.967 C139.277
X250.96 Y35.931 Z-8.968 C142.128
X252.114 Y37.494 C144.976
X253.198 Y39.126 Z-8.967 C147.843
X254.199 Y40.809 C150.701
X255.113 Y42.538 C153.559
X255.933 Y44.295 C156.391
X256.675 Y46.114 C159.26
X257.318 Y47.948 C162.104
X257.876 Y49.836 C164.98
X258.335 Y51.739 C167.84
X258.697 Y53.645 C170.671
X258.968 Y55.6 C173.557
X259.139 Y57.545 C176.411
X259.212 Y59.483 Z-8.966 C179.241
Y140.542 C180.795
X259.139 Y142.455 Z-8.967 C183.588
X258.968 Y144.4 C186.443
X258.697 Y146.355 C189.326
X258.335 Y148.261 C192.163
X257.876 Y150.164 C195.021
X257.318 Y152.052 C197.899
X256.675 Y153.886 C200.737
X255.933 Y155.705 C203.608
X255.113 Y157.462 C206.442
X254.199 Y159.191 C209.306
X253.198 Y160.874 C212.163
X252.114 Y162.506 Z-8.968 C215.023
X250.96 Y164.069 C217.851
X249.719 Y165.586 Z-8.967 C220.732
X248.412 Y167.03 Z-8.968 C223.575
X247.03 Y168.412 C226.426
X245.586 Y169.719 Z-8.967 C229.277
X244.069 Y170.96 Z-8.968 C232.128
X242.506 Y172.114 C234.976
X240.874 Y173.198 Z-8.967 C237.843
X239.191 Y174.199 C240.701
X237.462 Y175.113 C243.559
X235.705 Y175.933 C246.391
X233.886 Y176.675 C249.26
X232.052 Y177.318 C252.104
X230.164 Y177.876 C254.98
X228.261 Y178.335 C257.84
X226.355 Y178.697 C260.671
X224.4 Y178.968 C263.557
X222.455 Y179.139 C266.411
X220.517 Y179.212 Z-8.966 C269.241
X59.458 C270.795
X57.545 Y179.139 Z-8.967 C273.588
X55.6 Y178.968 C276.443
X53.645 Y178.697 C279.326
X51.739 Y178.335 C282.163
X49.836 Y177.876 C285.021
X47.948 Y177.318 C287.899
X46.114 Y176.675 C290.737
X44.295 Y175.933 C293.608
X42.538 Y175.113 C296.442
X40.809 Y174.199 C299.306
X39.126 Y173.198 C302.163
X37.494 Y172.114 Z-8.968 C305.023
X35.931 Y170.96 C307.851
X34.414 Y169.719 Z-8.967 C310.732
X32.97 Y168.412 Z-8.968 C313.575
X31.588 Y167.03 C316.426
X30.281 Y165.586 Z-8.967 C319.277
X29.04 Y164.069 Z-8.968 C322.128
X27.886 Y162.506 C324.976
X26.802 Y160.874 Z-8.967 C327.843
X25.801 Y159.191 C330.701
X24.887 Y157.462 C333.559
X24.067 Y155.705 C336.391
X23.325 Y153.886 C339.26
X22.682 Y152.052 C342.104
X22.124 Y150.164 C344.98
X21.665 Y148.261 C347.84
X21.303 Y146.355 C350.671
X21.032 Y144.4 C353.557
X20.861 Y142.455 C356.411
X20.788 Y140.517 Z-8.966 C359.241
Y59.458 C.795
X20.861 Y57.545 Z-8.967 C3.588
X21.032 Y55.6 C6.443
X21.303 Y53.645 C9.326
X21.665 Y51.739 C12.163
X22.124 Y49.836 C15.021
X22.682 Y47.948 C17.899
X23.325 Y46.114 C20.737
X24.067 Y44.295 C23.608
X24.887 Y42.538 C26.442
X25.801 Y40.809 C29.306
X26.802 Y39.126 C32.163
X27.886 Y37.494 Z-8.968 C35.023
X29.04 Y35.931 C37.851
X30.281 Y34.414 Z-8.967 C40.732
X31.588 Y32.97 Z-8.968 C43.575
X32.97 Y31.588 C46.426
X34.414 Y30.281 Z-8.967 C49.277
X35.931 Y29.04 Z-8.968 C52.128
X37.494 Y27.886 C54.976
X39.126 Y26.802 Z-8.967 C57.843
X40.809 Y25.801 C60.701
X42.538 Y24.887 C63.559
X44.295 Y24.067 C66.391
X46.114 Y23.325 C69.26
X47.948 Y22.682 C72.104
X49.836 Y22.124 C74.98
X51.739 Y21.665 C77.84
X53.645 Y21.303 C80.671
X55.6 Y21.032 C83.557
X57.545 Y20.861 C86.411
X59.483 Y20.788 Z-8.966 C89.241
/9M475 (WIRE FEED OFF)
/9G910 E#800 (LASER AT IDLE)
X59.924 Y20.523 Z-5.977 C89.887 F[[#881]+11750.]
/9G910 E#801 (LASER BACK TO FULL POWER)
/9M474 (WIRE FEED ON)
X220.99 Y20.535 Z-5.978 C91.439 F#881
X222.953 Y20.634 C94.289
X224.925 Y20.831 C97.166
X226.872 Y21.126 C100.024
X228.801 Y21.517 C102.882
X230.7 Y22.001 C105.727
X232.581 Y22.582 C108.587
X234.442 Y23.259 C111.456
X236.249 Y24.022 C114.305
X238.023 Y24.878 C117.162
X239.743 Y25.815 C120.011
X241.427 Y26.844 C122.881
X243.052 Y27.953 C125.731
X244.618 Y29.139 Z-5.979 C128.574
X246.123 Y30.402 Z-5.978 C131.434
X247.568 Y31.744 Z-5.979 C134.293
X248.939 Y33.149 Z-5.978 C137.141
X250.236 Y34.619 C139.995
X251.467 Y36.162 Z-5.979 C142.85
X252.611 Y37.753 C145.689
X253.681 Y39.408 Z-5.978 C148.558
X254.665 Y41.111 C151.416
X255.565 Y42.867 C154.278
X256.374 Y44.658 C157.134
X257.092 Y46.486 C159.979
X257.718 Y48.349 C162.833
X258.252 Y50.242 C165.688
X258.692 Y52.167 C168.557
X259.035 Y54.11 C171.42
X259.281 Y56.069 C174.286
X259.427 Y58.021 C177.126
X259.477 Y60.625 Z-5.977 C180.
X259.465 Y140.99 Z-5.978 C181.439
X259.366 Y142.953 C184.289
X259.169 Y144.925 C187.166
X258.874 Y146.872 C190.024
X258.483 Y148.801 C192.882
X257.999 Y150.7 C195.727
X257.418 Y152.581 C198.587
X256.741 Y154.442 C201.456
X255.978 Y156.249 C204.305
X255.122 Y158.023 C207.162
X254.185 Y159.743 C210.011
X253.156 Y161.427 C212.881
X252.047 Y163.052 C215.731
X250.861 Y164.618 Z-5.979 C218.574
X249.598 Y166.123 Z-5.978 C221.434
X248.256 Y167.568 Z-5.979 C224.293
X246.851 Y168.939 Z-5.978 C227.141
X245.381 Y170.236 C229.995
X243.838 Y171.467 Z-5.979 C232.85
X242.247 Y172.611 C235.689
X240.592 Y173.681 Z-5.978 C238.558
X238.889 Y174.665 C241.416
X237.133 Y175.565 C244.278
X235.342 Y176.374 C247.134
X233.514 Y177.092 C249.979
X231.651 Y177.718 C252.833
X229.758 Y178.252 C255.688
X227.833 Y178.692 C258.557
X225.89 Y179.035 C261.42
X223.931 Y179.281 C264.286
X221.979 Y179.427 C267.126
X219.375 Y179.477 Z-5.977 C270.
X59.01 Y179.465 Z-5.978 C271.439
X57.047 Y179.366 C274.289
X55.075 Y179.169 C277.166
X53.128 Y178.874 C280.024
X51.199 Y178.483 C282.882
X49.3 Y177.999 C285.727
X47.419 Y177.418 C288.587
X45.558 Y176.741 C291.456
X43.751 Y175.978 C294.305
X41.977 Y175.122 C297.162
X40.257 Y174.185 C300.011
X38.573 Y173.156 C302.881
X36.948 Y172.047 C305.731
X35.382 Y170.861 Z-5.979 C308.574
X33.877 Y169.598 Z-5.978 C311.434
X32.432 Y168.256 Z-5.979 C314.293
X31.061 Y166.851 Z-5.978 C317.141
X29.764 Y165.381 C319.995
X28.533 Y163.838 Z-5.979 C322.85
X27.389 Y162.247 C325.689
X26.319 Y160.592 Z-5.978 C328.558
X25.335 Y158.889 C331.416
X24.435 Y157.133 C334.278
X23.626 Y155.342 C337.134
X22.908 Y153.514 C339.979
X22.282 Y151.651 C342.833
X21.748 Y149.758 C345.688
X21.308 Y147.833 C348.557
X20.965 Y145.89 C351.42
X20.719 Y143.931 C354.286
X20.573 Y141.979 C357.126
X20.523 Y139.375 Z-5.977 C0.
X20.535 Y59.01 Z-5.978 C1.439
X20.634 Y57.047 C4.289
X20.831 Y55.075 C7.166
X21.126 Y53.128 C10.024
X21.517 Y51.199 C12.882
X22.001 Y49.3 C15.727
X22.582 Y47.419 C18.587
X23.259 Y45.558 C21.456
X24.022 Y43.751 C24.305
X24.878 Y41.977 C27.162
X25.815 Y40.257 C30.011
X26.844 Y38.573 C32.881
X27.953 Y36.948 C35.731
X29.139 Y35.382 Z-5.979 C38.574
X30.402 Y33.877 Z-5.978 C41.434
X31.744 Y32.432 Z-5.979 C44.293
X33.149 Y31.061 Z-5.978 C47.141
X34.619 Y29.764 C49.995
X36.162 Y28.533 Z-5.979 C52.85
X37.753 Y27.389 C55.689
X39.408 Y26.319 Z-5.978 C58.558
X41.111 Y25.335 C61.416
X42.867 Y24.435 C64.278
X44.658 Y23.626 C67.134
X46.486 Y22.908 C69.979
X48.349 Y22.282 C72.833
X50.242 Y21.748 C75.688
X52.167 Y21.308 C78.557
X54.11 Y20.965 C81.42
X56.069 Y20.719 C84.286
X58.021 Y20.573 C87.126
X59.924 Y20.523 Z-5.977 C89.886
/9M475 (WIRE FEED OFF)
/9G910 E#800 (LASER AT IDLE)
X59.511 Y20.265 Z-2.989 C89.291 F[[#881]+11750.]
/9G910 E#801 (LASER BACK TO FULL POWER)
/9M474 (WIRE FEED ON)
X220.506 C90.731 F#881
X222.48 Y20.339 C93.578
X224.451 Y20.512 C96.431
X226.426 Y20.785 C99.305
X228.358 Y21.15 C102.143
X230.287 Y21.616 C105.003
X232.202 Y22.181 C107.88
X234.056 Y22.831 C110.714
X235.905 Y23.583 C113.594
X237.686 Y24.414 C116.428
X239.442 Y25.342 C119.295
X241.143 Y26.353 C122.147
X242.798 Y27.452 C125.008
X244.387 Y28.625 Z-2.99 C127.847
X245.924 Y29.882 Z-2.989 C130.724
X247.389 Y31.208 C133.571
X248.792 Y32.611 C136.431
X250.118 Y34.076 C139.281
X251.375 Y35.613 Z-2.99 C142.135
X252.548 Y37.202 Z-2.989 C144.992
X253.647 Y38.857 C147.857
X254.658 Y40.558 C150.712
X255.586 Y42.314 C153.573
X256.417 Y44.095 C156.405
X257.169 Y45.944 C159.283
X257.819 Y47.798 C162.118
X258.384 Y49.713 C164.998
X258.85 Y51.642 C167.859
X259.215 Y53.574 C170.692
X259.488 Y55.549 C173.567
X259.661 Y57.52 C176.421
X259.735 Y59.511 C179.294
Y140.506 C180.731
X259.661 Y142.48 C183.578
X259.488 Y144.451 C186.431
X259.215 Y146.426 C189.305
X258.85 Y148.358 C192.143
X258.384 Y150.287 C195.003
X257.819 Y152.202 C197.88
X257.169 Y154.056 C200.714
X256.417 Y155.905 C203.594
X255.586 Y157.686 C206.428
X254.658 Y159.442 C209.295
X253.647 Y161.143 C212.147
X252.548 Y162.798 C215.008
X251.375 Y164.387 Z-2.99 C217.847
X250.118 Y165.924 Z-2.989 C220.724
X248.792 Y167.389 C223.571
X247.389 Y168.792 C226.431
X245.924 Y170.118 C229.281
X244.387 Y171.375 Z-2.99 C232.135
X242.798 Y172.548 Z-2.989 C234.992
X241.143 Y173.647 C237.857
X239.442 Y174.658 C240.712
X237.686 Y175.586 C243.573
X235.905 Y176.417 C246.405
X234.056 Y177.169 C249.283
X232.202 Y177.819 C252.118
X230.287 Y178.384 C254.998
X228.358 Y178.85 C257.859
X226.426 Y179.215 C260.692
X224.451 Y179.488 C263.567
X222.48 Y179.661 C266.421
X220.489 Y179.735 C269.294
X59.494 C270.731
X57.52 Y179.661 C273.578
X55.549 Y179.488 C276.431
X53.574 Y179.215 C279.305
X51.642 Y178.85 C282.143
X49.713 Y178.384 C285.003
X47.798 Y177.819 C287.88
X45.944 Y177.169 C290.714
X44.095 Y176.417 C293.594
X42.314 Y175.586 C296.428
X40.558 Y174.658 C299.295
X38.857 Y173.647 C302.147
X37.202 Y172.548 C305.008
X35.613 Y171.375 Z-2.99 C307.847
X34.076 Y170.118 Z-2.989 C310.724
X32.611 Y168.792 C313.571
X31.208 Y167.389 C316.431
X29.882 Y165.924 C319.281
X28.625 Y164.387 Z-2.99 C322.135
X27.452 Y162.798 Z-2.989 C324.992
X26.353 Y161.143 C327.857
X25.342 Y159.442 C330.712
X24.414 Y157.686 C333.573
X23.583 Y155.905 C336.405
X22.831 Y154.056 C339.283
X22.181 Y152.202 C342.118
X21.616 Y150.287 C344.998
X21.15 Y148.358 C347.859
X20.785 Y146.426 C350.692
X20.512 Y144.451 C353.567
X20.339 Y142.48 C356.421
X20.265 Y140.489 C359.294
Y59.494 C.731
X20.339 Y57.52 C3.578
X20.512 Y55.549 C6.431
X20.785 Y53.574 C9.305
X21.15 Y51.642 C12.143
X21.616 Y49.713 C15.003
X22.181 Y47.798 C17.88
X22.831 Y45.944 C20.714
X23.583 Y44.095 C23.594
X24.414 Y42.314 C26.428
X25.342 Y40.558 C29.295
X26.353 Y38.857 C32.147
X27.452 Y37.202 C35.008
X28.625 Y35.613 Z-2.99 C37.847
X29.882 Y34.076 Z-2.989 C40.724
X31.208 Y32.611 C43.571
X32.611 Y31.208 C46.431
X34.076 Y29.882 C49.281
X35.613 Y28.625 Z-2.99 C52.135
X37.202 Y27.452 Z-2.989 C54.992
X38.857 Y26.353 C57.857
X40.558 Y25.342 C60.712
X42.314 Y24.414 C63.573
X44.095 Y23.583 C66.405
X45.944 Y22.831 C69.283
X47.798 Y22.181 C72.118
X49.713 Y21.616 C74.998
X51.642 Y21.15 C77.859
X53.574 Y20.785 C80.692
X55.549 Y20.512 C83.567
X57.52 Y20.339 C86.421
X59.511 Y20.265 C89.294
/9M475 (WIRE FEED OFF)
/9G910 E#800 (LASER AT IDLE)
X60. Y20. Z0. C90. F[[#881]+11750.]
/9G910 E#801 (LASER BACK TO FULL POWER)
/9M474 (WIRE FEED ON)
X220.997 Y20.012 C91.43 F#881
X222.989 Y20.112 C94.286
X224.974 Y20.311 C97.142
X226.946 Y20.608 C100.
X228.902 Y21.003 C102.859
X230.834 Y21.495 C105.714
X232.739 Y22.083 C108.574
X234.614 Y22.765 C111.427
X236.451 Y23.54 C114.286
X238.249 Y24.405 C117.141
X240. Y25.359 C120.001
X241.703 Y26.4 Z-.001 C122.86
X243.35 Y27.522 Z0. C125.714
X244.94 Y28.727 C128.571
X246.467 Y30.009 C131.429
X247.93 Y31.366 Z-.001 C134.286
X249.322 Y32.793 Z0. C137.143
X250.642 Y34.288 C140.
X251.885 Y35.848 C142.857
X253.049 Y37.467 Z-.001 C145.711
X254.132 Y39.143 Z0. C148.571
X255.129 Y40.87 C151.431
X256.039 Y42.645 C154.286
X256.859 Y44.463 C157.146
X257.587 Y46.319 C159.997
X258.223 Y48.21 C162.857
X258.763 Y50.129 C165.712
X259.207 Y52.074 C168.571
X259.553 Y54.038 C171.43
X259.801 Y56.017 C174.286
X259.95 Y58.006 C177.141
X260. Y60.625 C180.
X259.988 Y140.997 C181.43
X259.888 Y142.989 C184.286
X259.689 Y144.974 C187.142
X259.392 Y146.946 C190.
X258.997 Y148.902 C192.859
X258.505 Y150.834 C195.714
X257.917 Y152.739 C198.574
X257.235 Y154.614 C201.427
X256.46 Y156.451 C204.286
X255.595 Y158.249 C207.141
X254.641 Y160. C210.001
X253.6 Y161.703 Z-.001 C212.86
X252.478 Y163.35 Z0. C215.714
X251.273 Y164.94 C218.571
X249.991 Y166.467 C221.429
X248.634 Y167.93 Z-.001 C224.286
X247.207 Y169.322 Z0. C227.143
X245.712 Y170.642 C230.
X244.152 Y171.885 C232.857
X242.533 Y173.049 Z-.001 C235.711
X240.857 Y174.132 Z0. C238.571
X239.13 Y175.129 C241.431
X237.355 Y176.039 C244.286
X235.537 Y176.859 C247.146
X233.681 Y177.587 C249.997
X231.79 Y178.223 C252.857
X229.871 Y178.763 C255.712
X227.926 Y179.207 C258.571
X225.962 Y179.553 C261.43
X223.983 Y179.801 C264.286
X221.994 Y179.95 C267.141
X219.375 Y180. C270.
X59.003 Y179.988 C271.43
X57.011 Y179.888 C274.286
X55.026 Y179.689 C277.142
X53.054 Y179.392 C280.
X51.098 Y178.997 C282.859
X49.166 Y178.505 C285.714
X47.261 Y177.917 C288.574
X45.386 Y177.235 C291.427
X43.549 Y176.46 C294.286
X41.751 Y175.595 C297.141
X40. Y174.641 C300.001
X38.297 Y173.6 Z-.001 C302.86
X36.65 Y172.478 Z0. C305.714
X35.06 Y171.273 C308.571
X33.533 Y169.991 C311.429
X32.07 Y168.634 Z-.001 C314.286
X30.678 Y167.207 Z0. C317.143
X29.358 Y165.712 C320.
X28.115 Y164.152 C322.857
X26.951 Y162.533 Z-.001 C325.711
X25.868 Y160.857 Z0. C328.571
X24.871 Y159.13 C331.431
X23.961 Y157.355 C334.286
X23.141 Y155.537 C337.146
X22.413 Y153.681 C339.997
X21.777 Y151.79 C342.857
X21.237 Y149.871 C345.712
X20.793 Y147.926 C348.571
X20.447 Y145.962 C351.43
X20.199 Y143.983 C354.286
X20.05 Y141.994 C357.141
X20. Y139.375 C0.
X20.012 Y59.003 C1.43
X20.112 Y57.011 C4.286
X20.311 Y55.026 C7.142
X20.608 Y53.054 C10.
X21.003 Y51.098 C12.859
X21.495 Y49.166 C15.714
X22.083 Y47.261 C18.574
X22.765 Y45.386 C21.427
X23.54 Y43.549 C24.286
X24.405 Y41.751 C27.141
X25.359 Y40. C30.001
X26.4 Y38.297 Z-.001 C32.86
X27.522 Y36.65 Z0. C35.714
X28.727 Y35.06 C38.571
X30.009 Y33.533 C41.429
X31.366 Y32.07 Z-.001 C44.286
X32.793 Y30.678 Z0. C47.143
X34.288 Y29.358 C50.
X35.848 Y28.115 C52.857
X37.467 Y26.951 Z-.001 C55.711
X39.143 Y25.868 Z0. C58.571
X40.87 Y24.871 C61.431
X42.645 Y23.961 C64.286
X44.463 Y23.141 C67.146
X46.319 Y22.413 C69.997
X48.21 Y21.777 C72.857
X50.129 Y21.237 C75.712
X52.074 Y20.793 C78.571
X54.038 Y20.447 C81.43
X56.017 Y20.199 C84.286
X58.006 Y20.05 C87.141
X60. Y20. C90.
/9M475 (WIRE FEED OFF)
/9G910 E#800 (LASER AT IDLE)
Y55.355 Z35.355 F[[#881]+11750.]
G49
G91 G00 G28 Z0.
(OPERATION NO - 2)
(OPERATION TYPE - C-HOOK)

(***---ADDITIVE VARIABLES---***)
#800=0.(LASER IDLE POWER, WATTS)
#801=1000.(INITIAL LASER POWER, WATTS)
#802=7.(NOZZLE GAS, LITERS/MIN)
#803=7.(SHIELDING GAS, LITERS/MIN)
#804=50.(WIRE FEED SPEED, INCHES/MIN)
#805=0.(HOT WIRE POWER, WATTS)
#881=750.(FEEDRATE DURING BURN, INCHES/MIN)

(*** SET LASER PARAMETERS ***)
/9G910 E#801 F#804 H#805 I#802 J#803
(****** CLADDING PARAMETERS ******)
(E: LASER POWER         -W-)
(F: WIRE SPEED        -IPM-)
(H: WIRE PRE-HEAT       -W-)
(I: NOZZLE GAS FLOW    -LM-)
(J: SHIELD GAS FLOW    -LM-)
(****** CLADDING PARAMETERS ******)
G54 G90
B13.729 C0.
G68.2 X0. Y0. Z0. I90. J13.729 K0.
G53.1 P1
X165.999 Y-57.447
G69
M46 M43
G01 G43.4 X64.046 Y165.999 Z20.093 F12500.
X52.179 Z-28.478
/9G910 E#801 (LASER BACK TO FULL POWER)
/9M474 (WIRE FEED ON)
X59.585 Y166. Z-30.207 B12.552 F#881
X67. Z-31.779 B11.378
X74.335 Z-33.178 B10.222
X80.281 Z-34.2 B9.288
/9M475 (WIRE FEED OFF)
/9G910 E#800 (LASER AT IDLE)
X88.351 Z15.144 F[[#881]+11750.]
X114.175 C4.644
X140. C0.
X165.825 C355.356
X191.649 C180.
X199.719 Z-34.2
/9G910 E#801 (LASER BACK TO FULL POWER)
/9M474 (WIRE FEED ON)
X207.194 Z-32.899 B10.463 F#881
X214.583 Z-31.457 B11.628
X222.014 Y165.999 Z-29.848 B12.806
X227.84 Z-28.474 B13.732
/9M475 (WIRE FEED OFF)
/9G910 E#800 (LASER AT IDLE)
X236.619 Y163. Z-26.214 B15.136 F[[#881]+11750.]
/9G910 E#801 (LASER BACK TO FULL POWER)
/9M474 (WIRE FEED ON)
X229.307 Z-28.112 B13.967 F#881
X221.922 Y162.999 Z-29.868 B12.791
X214.467 Y163. Z-31.48 B11.61
X207.05 Z-32.926 B10.44
X199.592 Z-34.221 B9.268
X191.989 Y162.999 Z-35.381 B8.077
X184.49 Y162.998 Z-36.367 B6.906
X176.955 Z-37.201 B5.732
X169.345 Y163. Z-37.886 B4.549
X161.845 Z-38.406 B3.384
X154.369 Z-38.772 B2.226
X146.88 Z-38.987 B1.065
X139.218 Z-39.05 B-.121
X131.623 Z-38.956 B-1.297
X124.18 Z-38.713 B-2.45
X116.658 Z-38.314 B-3.617
X109.198 Z-37.767 B-4.775
X101.706 Z-37.064 B-5.94
X94.108 Y162.999 Z-36.194 B-7.124
X86.726 Y162.998 Z-35.196 B-8.278
X79.183 Y162.999 Z-34.019 B-9.46
X71.826 Y163. Z-32.717 B-10.617
X64.442 Z-31.254 B-11.783
X56.963 Y162.999 Z-29.614 B-12.968
X49.563 Y163. Z-27.829 B-14.147
X43.349 Z-26.205 B-15.141
/9M475 (WIRE FEED OFF)
/9G910 E#800 (LASER AT IDLE)
X38.914 Y160. Z-24.976 B-15.854 F[[#881]+11750.]
/9G910 E#801 (LASER BACK TO FULL POWER)
/9M474 (WIRE FEED ON)
X46.214 Z-26.968 B-14.682 F#881
X53.645 Z-28.833 B-13.496
X61.107 Y159.998 Z-30.543 B-12.311
X68.378 Y160. Z-32.053 B-11.161
X75.885 Y159.999 Z-33.454 B-9.978
X83.374 Y160. Z-34.693 B-8.803
X90.85 Z-35.772 B-7.633
X98.333 Z-36.698 B-6.466
X105.905 Z-37.477 B-5.287
X113.446 Y159.999 Z-38.097 B-4.115
X121.032 Z-38.565 B-2.938
X128.526 Y160. Z-38.873 B-1.777
X135.957 Z-39.029 B-.626
X143.439 Z-39.035 B.533
X150.886 Z-38.891 B1.686
X158.502 Y159.999 Z-38.588 B2.866
X166.002 Y160. Z-38.136 B4.03
X173.481 Z-37.533 B5.191
X181.103 Z-36.761 B6.378
X188.66 Z-35.838 B7.557
X195.987 Y159.999 Z-34.791 B8.703
X203.36 Y160. Z-33.586 B9.859
X210.788 Y159.999 Z-32.217 B11.029
X218.298 Z-30.672 B12.216
X225.612 Y160. Z-29.011 B13.378
X232.889 Z-27.202 B14.539
X240.225 Y159.999 Z-25.219 B15.715
X241.063 Y160. Z-24.982 B15.85
/9M475 (WIRE FEED OFF)
/9G910 E#800 (LASER AT IDLE)
X244.159 Y156.999 Z-24.088 B16.349 F[[#881]+11750.]
/9G910 E#801 (LASER BACK TO FULL POWER)
/9M474 (WIRE FEED ON)
X236.858 Y157. Z-26.149 B15.175 F#881
X229.597 Z-28.04 B14.013
X222.18 Y156.999 Z-29.81 B12.832
X214.734 Y157. Z-31.425 B11.652
X207.338 Z-32.872 B10.485
X199.863 Z-34.177 B9.31
X192.486 Y156.999 Z-35.31 B8.155
X184.919 Y156.998 Z-36.314 B6.973
X177.41 Y156.999 Z-37.155 B5.803
X169.882 Y157. Z-37.842 B4.632
X162.456 Z-38.369 B3.479
X154.956 Z-38.749 B2.316
X147.481 Z-38.975 B1.158
X140. Z-39.051 B0.
X132.518 Z-38.975 B-1.159
X125.044 Z-38.749 B-2.316
X117.544 Z-38.369 B-3.479
X110.118 Z-37.842 B-4.632
X102.589 Y156.999 Z-37.155 B-5.803
X95.081 Y156.998 Z-36.314 B-6.973
X87.513 Y156.999 Z-35.31 B-8.155
X80.138 Y157. Z-34.177 B-9.31
X72.665 Z-32.873 B-10.485
X65.266 Z-31.425 B-11.652
X57.82 Y156.999 Z-29.81 B-12.832
X50.403 Y157. Z-28.04 B-14.013
X43.142 Z-26.149 B-15.175
X35.854 Y156.999 Z-24.092 B-16.347
/9M475 (WIRE FEED OFF)
/9G910 E#800 (LASER AT IDLE)
X33.581 Y154. Z-23.418 B-16.714 F[[#881]+11750.]
/9G910 E#801 (LASER BACK TO FULL POWER)
/9M474 (WIRE FEED ON)
X40.739 Z-25.489 B-15.561 F#881
X47.934 Z-27.415 B-14.407
X55.196 Z-29.202 B-13.249
X62.622 Z-30.87 B-12.071
X70.013 Y153.999 Z-32.372 B-10.903
X77.496 Y154. Z-33.734 B-9.725
X85.009 Z-34.942 B-8.547
X92.61 Z-36.004 B-7.358
X100.062 Z-36.889 B-6.196
X107.55 Z-37.625 B-5.031
X115.089 Z-38.212 B-3.86
X122.593 Z-38.641 B-2.696
X130.17 Z-38.92 B-1.522
X137.783 Z-39.044 B-.343
X145.241 Z-39.014 B.812
X152.722 Z-38.832 B1.97
X160.404 Z-38.488 B3.161
X167.922 Y153.999 Z-37.996 B4.328
X175.375 Z-37.356 B5.486
X183.015 Y154. Z-36.542 B6.676
X190.585 Z-35.577 B7.857
X198.027 Z-34.473 B9.022
X205.438 Z-33.219 B10.186
X212.765 Z-31.826 B11.341
X220.126 Z-30.271 B12.506
X227.595 Y153.999 Z-28.533 B13.694
X234.823 Y154. Z-26.695 B14.848
X242.173 Z-24.665 B16.029
X246.438 Z-23.412 B16.717
/9M475 (WIRE FEED OFF)
/9G910 E#800 (LASER AT IDLE)
X248.098 Y151. Z-22.909 B16.986 F[[#881]+11750.]
/9G910 E#801 (LASER BACK TO FULL POWER)
/9M474 (WIRE FEED ON)
X240.889 Z-25.032 B15.822 F#881
X233.512 Z-27.04 B14.638
X226.258 Z-28.857 B13.48
X218.868 Y150.999 Z-30.548 B12.307
X211.479 Y151. Z-32.081 B11.138
X204.026 Z-33.47 B9.964
X196.485 Z-34.714 B8.781
X188.999 Z-35.792 B7.61
X181.534 Z-36.713 B6.445
X174.029 Z-37.483 B5.277
X166.447 Z-38.105 B4.099
X158.917 Y150.999 Z-38.567 B2.93
X151.327 Y151. Z-38.878 B1.754
X143.893 Z-39.031 B.603
X136.408 Z-39.034 B-.556
X128.971 Z-38.887 B-1.708
X127.485 Z-38.839 B-1.938
/9M475 (WIRE FEED OFF)
/9G910 E#800 (LASER AT IDLE)
X129.176 Z11.132 F[[#881]+11750.]
X98.743 Z13.62 B-7.407
X92.297 Z-35.963
/9G910 E#801 (LASER BACK TO FULL POWER)
/9M474 (WIRE FEED ON)
X84.783 Y150.999 Z-34.908 B-8.582 F#881
X77.359 Y151. Z-33.71 B-9.746
X69.897 Y150.999 Z-32.35 B-10.921
X62.49 Y151. Z-30.842 B-12.092
X55.09 Z-29.177 B-13.266
X47.797 Z-27.379 B-14.429
X40.429 Y150.999 Z-25.402 B-15.61
X33.066 Y151. Z-23.263 B-16.798
X31.895 Z-22.907 B-16.987
/9M475 (WIRE FEED OFF)
/9G910 E#800 (LASER AT IDLE)
X30.687 Y148. Z-22.536 B-17.183 F[[#881]+11750.]
/9G910 E#801 (LASER BACK TO FULL POWER)
/9M474 (WIRE FEED ON)
X37.824 Z-24.664 B-16.03 F#881
X45.164 Z-26.692 B-14.85
X52.553 Y147.999 Z-28.57 B-13.67
X59.875 Y148. Z-30.272 B-12.506
X67.231 Z-31.825 B-11.342
X74.761 Y147.999 Z-33.255 B-10.155
X82.271 Y148. Z-34.52 B-8.976
X89.089 Z-35.532 B-7.908
/9M475 (WIRE FEED OFF)
/9G910 E#800 (LASER AT IDLE)
X95.968 Z13.993 F[[#881]+11750.]
X131.895 Y147.999 Z11.052 B-1.451
X130.628 Z-38.932
/9G910 E#801 (LASER BACK TO FULL POWER)
/9M474 (WIRE FEED ON)
X138.089 Y148. Z-39.046 B-.296 F#881
X145.54 Z-39.01 B.858
X153.028 Z-38.822 B2.018
X160.655 Z-38.474 B3.2
X168.2 Y147.999 Z-37.975 B4.371
X175.849 Z-37.31 B5.56
X183.295 Y148. Z-36.509 B6.719
X190.865 Z-35.538 B7.901
X198.331 Z-34.424 B9.07
X205.694 Z-33.173 B10.226
X213.208 Y147.999 Z-31.737 B11.411
X220.704 Y148. Z-30.143 B12.598
X228.016 Z-28.431 B13.761
X235.293 Y147.999 Z-26.57 B14.924
X242.455 Y148. Z-24.584 B16.075
X249.321 Z-22.533 B17.184
/9M475 (WIRE FEED OFF)
/9G910 E#800 (LASER AT IDLE)
X250.107 Y145. Z-22.289 B17.311 F[[#881]+11750.]
/9G910 E#801 (LASER BACK TO FULL POWER)
/9M474 (WIRE FEED ON)
X242.858 Z-24.468 B16.139 F#881
X235.608 Y144.999 Z-26.486 B14.974
X228.158 Y145. Z-28.396 B13.783
X220.85 Z-30.11 B12.621
X213.418 Y144.999 Z-31.694 B11.444
X206.041 Y145. Z-33.11 B10.281
X198.481 Z-34.4 B9.094
X191.005 Z-35.519 B7.923
X183.438 Z-36.493 B6.742
X175.981 Y144.999 Z-37.298 B5.58
X168.331 Z-37.965 B4.391
X160.757 Y145. Z-38.468 B3.216
X153.179 Z-38.816 B2.041
X145.689 Z-39.007 B.881
X138.242 Z-39.047 B-.272
X132.343 Z-38.972 B-1.186
/9M475 (WIRE FEED OFF)
/9G910 E#800 (LASER AT IDLE)
X133.377 Z11.017 F[[#881]+11750.]
X94.461 Y144.999 Z14.206 B-8.181
X87.346 Z-35.286
/9G910 E#801 (LASER BACK TO FULL POWER)
/9M474 (WIRE FEED ON)
X79.853 Y145. Z-34.13 B-9.355 F#881
X72.37 Z-32.818 B-10.531
X64.999 Z-31.37 B-11.694
X57.594 Y144.999 Z-29.758 B-12.868
X50.112 Y145. Z-27.967 B-14.059
X42.86 Z-26.073 B-15.22
X35.593 Y144.999 Z-24.016 B-16.389
X29.89 Y145. Z-22.288 B-17.312
/9M475 (WIRE FEED OFF)
/9G910 E#800 (LASER AT IDLE)
X29.479 Y142. Z-22.16 B-17.379 F[[#881]+11750.]
/9G910 E#801 (LASER BACK TO FULL POWER)
/9M474 (WIRE FEED ON)
X36.756 Z-24.356 B-16.202 F#881
X44.096 Y141.999 Z-26.407 B-15.022
X51.416 Y142. Z-28.291 B-13.851
X58.713 Z-30.012 B-12.69
X66.23 Y141.999 Z-31.623 B-11.5
X73.726 Y142. Z-33.068 B-10.318
X81.081 Z-34.33 B-9.162
X86.519 Y141.999 Z-35.166 B-8.31
/9M475 (WIRE FEED OFF)
/9G910 E#800 (LASER AT IDLE)
X93.745 Z14.309 F[[#881]+11750.]
X134.087 Y142. Z11.004 B-1.059
X133.164 Z-38.988
/9G910 E#801 (LASER BACK TO FULL POWER)
/9M474 (WIRE FEED ON)
X140.671 Z-39.05 B.104 F#881
X148.235 Z-38.959 B1.275
X155.693 Z-38.718 B2.431
X163.202 Z-38.323 B3.595
X170.657 Z-37.779 B4.753
X178.26 Z-37.068 B5.935
X185.82 Z-36.203 B7.113
X193.331 Y141.999 Z-35.188 B8.287
X196.601 Y142. Z-34.696 B8.799
/9M475 (WIRE FEED OFF)
/9G910 E#800 (LASER AT IDLE)
X188.952 Z14.715 F[[#881]+11750.]
X215.38 Y141.999 Z19.953 B13.624
X227.157 Z-28.64
/9G910 E#801 (LASER BACK TO FULL POWER)
/9M474 (WIRE FEED ON)
X234.602 Y142. Z-26.753 B14.813 F#881
X241.888 Z-24.747 B15.983
X249.196 Z-22.572 B17.164
X250.52 Z-22.16 B17.379
/9M475 (WIRE FEED OFF)
/9G910 E#800 (LASER AT IDLE)
X250.607 Y139. Z-22.133 B17.393 F[[#881]+11750.]
/9G910 E#801 (LASER BACK TO FULL POWER)
/9M474 (WIRE FEED ON)
X243.375 Z-24.318 B16.223 F#881
X236.026 Y138.999 Z-26.374 B15.041
X230.301 Y139. Z-27.863 B14.125
/9M475 (WIRE FEED OFF)
/9G910 E#800 (LASER AT IDLE)
X218.099 Z20.625 F[[#881]+11750.]
X186.128 Y138.999 Z14.291 B8.287
X193.335 Z-35.187
/9G910 E#801 (LASER BACK TO FULL POWER)
/9M474 (WIRE FEED ON)
X185.928 Z-36.19 B7.13 F#881
X178.375 Y139. Z-37.056 B5.953
X170.814 Z-37.766 B4.777
X163.349 Z-38.314 B3.618
X155.841 Z-38.712 B2.454
X148.383 Z-38.956 B1.298
X140.83 Z-39.05 B.129
X133.33 Z-38.991 B-1.033
/9M475 (WIRE FEED OFF)
/9G910 E#800 (LASER AT IDLE)
X134.231 Z11.001 F[[#881]+11750.]
X93.6 Z14.33 B-8.337
X86.351 Z-35.141
/9G910 E#801 (LASER BACK TO FULL POWER)
/9M474 (WIRE FEED ON)
X78.839 Y138.999 Z-33.961 B-9.514 F#881
X71.531 Y139. Z-32.661 B-10.663
X64.138 Z-31.191 B-11.831
X56.855 Z-29.589 B-12.985
X49.545 Z-27.825 B-14.15
X42.284 Z-25.916 B-15.312
X35.034 Z-23.851 B-16.48
X29.393 Z-22.133 B-17.393
/9M475 (WIRE FEED OFF)
/9G910 E#800 (LASER AT IDLE)
Y136. F[[#881]+11750.]
/9G910 E#801 (LASER BACK TO FULL POWER)
/9M474 (WIRE FEED ON)
X36.743 Z-24.352 B-16.204 F#881
X44.056 Y135.999 Z-26.396 B-15.028
X51.416 Y136. Z-28.291 B-13.851
X58.712 Z-30.012 B-12.69
X66.182 Y135.999 Z-31.613 B-11.507
X73.723 Y136. Z-33.067 B-10.318
X81.079 Z-34.33 B-9.163
X86.351 Z-35.141 B-8.337
/9M475 (WIRE FEED OFF)
/9G910 E#800 (LASER AT IDLE)
X93.6 Z14.33 F[[#881]+11750.]
X134.231 Z11.001 B-1.033
X133.33 Z-38.991
/9G910 E#801 (LASER BACK TO FULL POWER)
/9M474 (WIRE FEED ON)
X140.99 Z-39.05 B.153 F#881
X148.531 Z-38.953 B1.321
X155.99 Z-38.705 B2.477
X163.497 Z-38.304 B3.641
X170.969 Z-37.753 B4.801
X178.489 Z-37.044 B5.971
X186.019 Y135.999 Z-36.178 B7.144
X191.491 Y136. Z-35.451 B7.999
/9M475 (WIRE FEED OFF)
/9G910 E#800 (LASER AT IDLE)
X184.533 Z14.063 F[[#881]+11750.]
X219.65 Z21.019 B14.412
X232.095 Z-27.407
/9G910 E#801 (LASER BACK TO FULL POWER)
/9M474 (WIRE FEED ON)
X239.511 Z-25.419 B15.601 F#881
X246.786 Z-23.307 B16.774
X250.607 Z-22.133 B17.393
/9M475 (WIRE FEED OFF)
/9G910 E#800 (LASER AT IDLE)
Y133. F[[#881]+11750.]
/9G910 E#801 (LASER BACK TO FULL POWER)
/9M474 (WIRE FEED ON)
X243.39 Z-24.313 B16.225 F#881
X236.069 Y132.999 Z-26.362 B15.048
X233.072 Y133.001 Z-27.155 B14.568
/9M475 (WIRE FEED OFF)
/9G910 E#800 (LASER AT IDLE)
X220.496 Z21.238 F[[#881]+11750.]
X183.688 Y133. Z13.945 B7.846
X190.514 Z-35.587
/9G910 E#801 (LASER BACK TO FULL POWER)
/9M474 (WIRE FEED ON)
X182.946 Z-36.55 B6.665 F#881
X175.379 Y132.999 Z-37.356 B5.487
X167.77 Z-38.008 B4.304
X160.309 Y133. Z-38.493 B3.146
X152.879 Z-38.827 B1.995
X145.392 Z-39.012 B.835
X137.924 Z-39.045 B-.322
X133.711 Z-38.998 B-.974
/9M475 (WIRE FEED OFF)
/9G910 E#800 (LASER AT IDLE)
X134.56 Z10.995 F[[#881]+11750.]
X93.285 Z14.377 B-8.394
X85.986 Z-35.088
/9G910 E#801 (LASER BACK TO FULL POWER)
/9M474 (WIRE FEED ON)
X78.583 Y132.999 Z-33.918 B-9.554 F#881
X71.252 Y133. Z-32.608 B-10.707
X63.839 Z-31.128 B-11.878
X56.58 Z-29.525 B-13.029
X49.284 Z-27.759 B-14.191
X41.996 Z-25.837 B-15.359
X34.766 Z-23.771 B-16.523
X29.393 Z-22.133 B-17.393
/9M475 (WIRE FEED OFF)
/9G910 E#800 (LASER AT IDLE)
Y130. F[[#881]+11750.]
/9G910 E#801 (LASER BACK TO FULL POWER)
/9M474 (WIRE FEED ON)
X36.731 Z-24.348 B-16.206 F#881
X44.014 Y129.999 Z-26.385 B-15.035
X51.417 Y130. Z-28.291 B-13.851
X58.712 Z-30.012 B-12.69
X66.135 Y129.999 Z-31.604 B-11.515
X73.412 Y130. Z-33.01 B-10.367
X80.79 Z-34.283 B-9.208
X84.871 Z-34.921 B-8.568
/9M475 (WIRE FEED OFF)
/9G910 E#800 (LASER AT IDLE)
X92.321 Z14.521 F[[#881]+11750.]
X113.942 Z12.75 C183.887
X135.563 Z10.98 B-.794 C180.
X134.87 Z-39.015
/9G910 E#801 (LASER BACK TO FULL POWER)
/9M474 (WIRE FEED ON)
X142.535 Z-39.042 B.393 F#881
X150.088 Z-38.914 B1.562
X157.742 Z-38.625 B2.748
X165.238 Z-38.189 B3.911
X172.887 Z-37.587 B5.099
X180.521 Z-36.826 B6.287
X187.927 Z-35.934 B7.442
X190.198 Z-35.63 B7.797
/9M475 (WIRE FEED OFF)
/9G910 E#800 (LASER AT IDLE)
X183.415 Z13.908 F[[#881]+11750.]
X220.764 Y130.001 Z21.308 B14.618
X233.382 Z-27.074
/9G910 E#801 (LASER BACK TO FULL POWER)
/9M474 (WIRE FEED ON)
X240.611 Y130. Z-25.11 B15.778 F#881
X247.914 Z-22.965 B16.956
X250.607 Z-22.133 B17.393
/9M475 (WIRE FEED OFF)
/9G910 E#800 (LASER AT IDLE)
Y127. F[[#881]+11750.]
/9G910 E#801 (LASER BACK TO FULL POWER)
/9M474 (WIRE FEED ON)
X243.406 Z-24.309 B16.228 F#881
X236.106 Y126.999 Z-26.352 B15.054
X233.382 Y127.001 Z-27.074 B14.618
/9M475 (WIRE FEED OFF)
/9G910 E#800 (LASER AT IDLE)
X220.764 Z21.308 F[[#881]+11750.]
X183.684 Y127. Z13.944 B7.845
X190.509 Z-35.588
/9G910 E#801 (LASER BACK TO FULL POWER)
/9M474 (WIRE FEED ON)
X182.965 Z-36.548 B6.668 F#881
X175.418 Z-37.352 B5.493
X167.828 Y126.999 Z-38.003 B4.313
X160.311 Y127. Z-38.493 B3.147
X152.88 Z-38.827 B1.995
X145.392 Z-39.012 B.835
X137.92 Z-39.045 B-.322
X137.167 Z-39.04 B-.439
/9M475 (WIRE FEED OFF)
/9G910 E#800 (LASER AT IDLE)
X137.55 Z10.958 F[[#881]+11750.]
X114.003 Z12.883 C184.234
X90.456 Z14.807 B-8.906 C180.
X82.715 Z-34.59
/9G910 E#801 (LASER BACK TO FULL POWER)
/9M474 (WIRE FEED ON)
X75.159 Y126.999 Z-33.326 B-10.092 F#881
X67.652 Y127. Z-31.909 B-11.275
X60.301 Z-30.366 B-12.438
X52.927 Y126.999 Z-28.66 B-13.61
X45.507 Y127. Z-26.782 B-14.795
X38.254 Z-24.788 B-15.96
X31.058 Z-22.65 B-17.123
X29.393 Z-22.133 B-17.393
/9M475 (WIRE FEED OFF)
/9G910 E#800 (LASER AT IDLE)
Y124. F[[#881]+11750.]
/9G910 E#801 (LASER BACK TO FULL POWER)
/9M474 (WIRE FEED ON)
X36.717 Z-24.344 B-16.208 F#881
X43.963 Y123.999 Z-26.371 B-15.043
X51.128 Y124. Z-28.22 B-13.897
X58.421 Z-29.946 B-12.737
X65.886 Z-31.553 B-11.554
X73.407 Z-33.009 B-10.368
X78.415 Y123.999 Z-33.89 B-9.581
/9M475 (WIRE FEED OFF)
/9G910 E#800 (LASER AT IDLE)
X86.737 Z15.413 F[[#881]+11750.]
X114.33 Y124. Z13.184 C184.963
X141.924 Z10.955 B-.345 C0.
X142.225 Z-39.044
/9G910 E#801 (LASER BACK TO FULL POWER)
/9M474 (WIRE FEED ON)
X149.637 Z-38.926 B-1.492 F#881
X157.179 Z-38.652 B-2.661
X164.671 Z-38.228 B-3.823
X172.147 Z-37.652 B-4.984
X179.612 Z-36.925 B-6.145
X187.109 Z-36.04 B-7.314
X191.357 Z-35.47 B-7.978
/9M475 (WIRE FEED OFF)
/9G910 E#800 (LASER AT IDLE)
X184.417 Z14.046 F[[#881]+11750.]
X220.764 Y124.001 Z21.308 B-14.618
X233.382 Z-27.074
/9G910 E#801 (LASER BACK TO FULL POWER)
/9M474 (WIRE FEED ON)
X240.636 Y124. Z-25.103 B-15.782 F#881
X247.921 Z-22.963 B-16.957
X250.607 Z-22.133 B-17.393
/9M475 (WIRE FEED OFF)
/9G910 E#800 (LASER AT IDLE)
Y121. F[[#881]+11750.]
/9G910 E#801 (LASER BACK TO FULL POWER)
/9M474 (WIRE FEED ON)
X243.422 Z-24.304 B-16.23 F#881
X236.155 Y120.999 Z-26.339 B-15.062
X233.382 Y121.001 Z-27.074 B-14.618
/9M475 (WIRE FEED OFF)
/9G910 E#800 (LASER AT IDLE)
X220.764 Z21.308 F[[#881]+11750.]
X185.149 Y121. Z14.15 B-8.11
X192.203 Z-35.35
/9G910 E#801 (LASER BACK TO FULL POWER)
/9M474 (WIRE FEED ON)
X184.596 Y120.999 Z-36.354 B-6.922 F#881
X177.131 Z-37.183 B-5.759
X169.589 Y121. Z-37.866 B-4.587
X163.459 Z-38.307 B-3.635
/9M475 (WIRE FEED OFF)
/9G910 E#800 (LASER AT IDLE)
X160.289 Z11.593 F[[#881]+11750.]
X131.989 Z13.575 C5.094
X103.688 Z15.557 C10.189
X94.255 Z16.218 C15.268
X84.821 Z16.879 C20.348
X75.388 Z17.539 B-11.648 C180.
X65.293 Z-31.431
/9G910 E#801 (LASER BACK TO FULL POWER)
/9M474 (WIRE FEED ON)
X57.816 Z-29.809 B-12.833 F#881
X50.402 Z-28.04 B-14.013
X43.151 Z-26.152 B-15.173
X35.81 Z-24.079 B-16.354
X29.393 Z-22.133 B-17.393
/9M475 (WIRE FEED OFF)
/9G910 E#800 (LASER AT IDLE)
Y118. F[[#881]+11750.]
/9G910 E#801 (LASER BACK TO FULL POWER)
/9M474 (WIRE FEED ON)
X36.704 Z-24.341 B-16.21 F#881
X44.11 Y117.999 Z-26.41 B-15.019
X51.419 Y118. Z-28.292 B-13.851
X58.711 Z-30.012 B-12.691
X60.811 Z-30.478 B-12.357
/9M475 (WIRE FEED OFF)
/9G910 E#800 (LASER AT IDLE)
X71.512 Z18.363 F[[#881]+11750.]
X102.299 Z16.189 C185.545
X133.086 Z14.015 C180.
X143.348 Y117.999 Z13.29 C185.545
X153.61 Z12.565 C180.
X163.873 Z11.841 B-4.278 C0.
X167.602 Z-38.02
/9G910 E#801 (LASER BACK TO FULL POWER)
/9M474 (WIRE FEED ON)
X175.067 Y118. Z-37.386 B-5.438 F#881
X182.566 Z-36.595 B-6.606
X190.036 Z-35.652 B-7.772
X192.937 Y117.999 Z-35.245 B-8.225
/9M475 (WIRE FEED OFF)
/9G910 E#800 (LASER AT IDLE)
X185.784 Z14.241 F[[#881]+11750.]
X220.764 Y118.001 Z21.308 B-14.618
X233.382 Z-27.074
/9G910 E#801 (LASER BACK TO FULL POWER)
/9M474 (WIRE FEED ON)
X240.665 Y118. Z-25.095 B-15.786 F#881
X247.927 Z-22.961 B-16.958
X250.607 Z-22.133 B-17.393
/9M475 (WIRE FEED OFF)
/9G910 E#800 (LASER AT IDLE)
Y115. F[[#881]+11750.]
/9G910 E#801 (LASER BACK TO FULL POWER)
/9M474 (WIRE FEED ON)
X243.439 Z-24.299 B-16.233 F#881
X236.278 Z-26.306 B-15.082
X233.382 Y115.001 Z-27.074 B-14.618
/9M475 (WIRE FEED OFF)
/9G910 E#800 (LASER AT IDLE)
X220.764 Z21.308 F[[#881]+11750.]
X186.314 Y115. Z14.318 B-8.321
X193.55 Z-35.156
/9G910 E#801 (LASER BACK TO FULL POWER)
/9M474 (WIRE FEED ON)
X185.987 Z-36.182 B-7.139 F#881
X178.543 Z-37.038 B-5.979
X171.126 Z-37.74 B-4.825
X170.174 Z-37.819 B-4.677
/9M475 (WIRE FEED OFF)
/9G910 E#800 (LASER AT IDLE)
X166.097 Z12.015 F[[#881]+11750.]
X133.812 Z14.299 C5.817
X101.528 Z16.584 C11.634
X90.767 Z17.346 C17.427
X80.005 Z18.107 C23.221
X69.244 Z18.869 B-12.773 C180.
X58.189 Z-29.894
/9G910 E#801 (LASER BACK TO FULL POWER)
/9M474 (WIRE FEED ON)
X50.983 Z-28.184 B-13.92 F#881
X43.722 Z-26.306 B-15.081
X36.561 Z-24.299 B-16.233
X29.393 Z-22.133 B-17.393
/9M475 (WIRE FEED OFF)
/9G910 E#800 (LASER AT IDLE)
Y112. F[[#881]+11750.]
/9G910 E#801 (LASER BACK TO FULL POWER)
/9M474 (WIRE FEED ON)
X36.69 Z-24.336 B-16.212 F#881
X44.06 Z-26.397 B-15.027
X51.419 Z-28.292 B-13.851
X56.462 Z-29.498 B-13.048
/9M475 (WIRE FEED OFF)
/9G910 E#800 (LASER AT IDLE)
X67.75 Z19.211 F[[#881]+11750.]
X92.708 Z17.443 C184.498
X117.665 Z15.676 C180.
X142.623 Z13.908 C175.502
X167.581 Z12.14 B-4.944 C0.
X171.89 Z-37.674
/9G910 E#801 (LASER BACK TO FULL POWER)
/9M474 (WIRE FEED ON)
X179.318 Z-36.956 B-6.1 F#881
X186.847 Z-36.074 B-7.273
X194.045 Z-35.083 B-8.399
/9M475 (WIRE FEED OFF)
/9G910 E#800 (LASER AT IDLE)
X186.742 Z14.381 F[[#881]+11750.]
X220.764 Y112.001 Z21.308 B-14.618
X233.382 Z-27.074
/9G910 E#801 (LASER BACK TO FULL POWER)
/9M474 (WIRE FEED ON)
X240.707 Y112. Z-25.083 B-15.793 F#881
X247.932 Z-22.96 B-16.959
X250.607 Z-22.133 B-17.393
/9M475 (WIRE FEED OFF)
/9G910 E#800 (LASER AT IDLE)
Y109. F[[#881]+11750.]
/9G910 E#801 (LASER BACK TO FULL POWER)
/9M474 (WIRE FEED ON)
X243.456 Z-24.294 B-16.236 F#881
X236.056 Z-26.366 B-15.046
X233.382 Y109.001 Z-27.074 B-14.618
/9M475 (WIRE FEED OFF)
/9G910 E#800 (LASER AT IDLE)
X220.764 Z21.308 F[[#881]+11750.]
X187.068 Y109. Z14.429 B-8.458
X194.422 Z-35.027
/9G910 E#801 (LASER BACK TO FULL POWER)
/9M474 (WIRE FEED ON)
X186.867 Z-36.071 B-7.277 F#881
X179.472 Z-36.94 B-6.124
X172.971 Z-37.579 B-5.112
/9M475 (WIRE FEED OFF)
/9G910 E#800 (LASER AT IDLE)
X168.515 Z12.222 F[[#881]+11750.]
X143.092 Z14.023 C4.583
X117.669 Z15.825 C9.165
X92.245 Z17.626 C13.748
X66.822 Z19.428 B-13.218 C180.
X55.389 Z-29.247
/9G910 E#801 (LASER BACK TO FULL POWER)
/9M474 (WIRE FEED ON)
X48.115 Z-27.461 B-14.378 F#881
X40.84 Z-25.517 B-15.544
X33.643 Z-23.436 B-16.704
X29.393 Z-22.133 B-17.393
/9M475 (WIRE FEED OFF)
/9G910 E#800 (LASER AT IDLE)
Y106. F[[#881]+11750.]
/9G910 E#801 (LASER BACK TO FULL POWER)
/9M474 (WIRE FEED ON)
X36.676 Z-24.332 B-16.215 F#881
X43.996 Z-26.38 B-15.038
X51.419 Z-28.292 B-13.851
X54.831 Z-29.116 B-13.307
/9M475 (WIRE FEED OFF)
/9G910 E#800 (LASER AT IDLE)
X66.339 Z19.542 F[[#881]+11750.]
X92.005 Z17.723 C184.627
X117.671 Z15.904 C180.
X143.336 Z14.085 C175.373
X169.002 Z12.266 B-5.2 C0.
X173.533 Z-37.528
/9G910 E#801 (LASER BACK TO FULL POWER)
/9M474 (WIRE FEED ON)
X181.118 Z-36.759 B-6.38 F#881
X188.55 Z-35.852 B-7.539
X194.694 Z-34.987 B-8.5
/9M475 (WIRE FEED OFF)
/9G910 E#800 (LASER AT IDLE)
X187.303 Z14.464 F[[#881]+11750.]
X220.764 Y106.001 Z21.308 B-14.618
X233.382 Z-27.074
/9G910 E#801 (LASER BACK TO FULL POWER)
/9M474 (WIRE FEED ON)
X240.727 Y106. Z-25.077 B-15.796 F#881
X247.934 Z-22.959 B-16.959
X250.607 Z-22.133 B-17.393
/9M475 (WIRE FEED OFF)
/9G910 E#800 (LASER AT IDLE)
Y103. F[[#881]+11750.]
/9G910 E#801 (LASER BACK TO FULL POWER)
/9M474 (WIRE FEED ON)
X243.474 Z-24.289 B-16.239 F#881
X236.11 Z-26.351 B-15.055
X233.382 Y103.001 Z-27.074 B-14.618
/9M475 (WIRE FEED OFF)
/9G910 E#800 (LASER AT IDLE)
X220.764 Z21.308 F[[#881]+11750.]
X187.445 Z14.485 B-8.526
X194.858 Z-34.962
/9G910 E#801 (LASER BACK TO FULL POWER)
/9M474 (WIRE FEED ON)
X187.504 Y103. Z-35.989 B-7.376 F#881
X180.075 Z-36.874 B-6.218
X173.638 Z-37.519 B-5.216
/9M475 (WIRE FEED OFF)
/9G910 E#800 (LASER AT IDLE)
X169.093 Z12.274 F[[#881]+11750.]
X143.382 Z14.096 C4.635
X117.671 Z15.919 C9.27
X91.96 Z17.741 C13.905
X66.249 Z19.563 B-13.324 C180.
X54.726 Z-29.091
/9G910 E#801 (LASER BACK TO FULL POWER)
/9M474 (WIRE FEED ON)
X47.502 Z-27.303 B-14.476 F#881
X40.292 Z-25.364 B-15.632
X33.069 Z-23.264 B-16.797
X29.393 Z-22.133 B-17.393
/9M475 (WIRE FEED OFF)
/9G910 E#800 (LASER AT IDLE)
Y100. F[[#881]+11750.]
/9G910 E#801 (LASER BACK TO FULL POWER)
/9M474 (WIRE FEED ON)
X36.661 Z-24.328 B-16.217 F#881
X43.876 Z-26.348 B-15.057
X51.128 Z-28.22 B-13.897
X54.726 Y99.999 Z-29.091 B-13.324
/9M475 (WIRE FEED OFF)
/9G910 E#800 (LASER AT IDLE)
X66.249 Z19.563 F[[#881]+11750.]
X91.96 Y100. Z17.741 C184.635
X117.671 Z15.919 C180.
X143.382 Z14.096 C175.365
X169.093 Y100.001 Z12.274 B-5.216 C0.
X173.638 Z-37.519
/9G910 E#801 (LASER BACK TO FULL POWER)
/9M474 (WIRE FEED ON)
X181.118 Y100. Z-36.759 B-6.38 F#881
X188.555 Z-35.852 B-7.54
X194.913 Y100.002 Z-34.954 B-8.535
/9M475 (WIRE FEED OFF)
/9G910 E#800 (LASER AT IDLE)
X187.493 Z14.493 F[[#881]+11750.]
X220.764 Y100.001 Z21.308 B-14.618
X233.382 Z-27.074
/9G910 E#801 (LASER BACK TO FULL POWER)
/9M474 (WIRE FEED ON)
X240.747 Y100. Z-25.072 B-15.799 F#881
X247.934 Z-22.959 B-16.959
X250.607 Z-22.133 B-17.393
/9M475 (WIRE FEED OFF)
/9G910 E#800 (LASER AT IDLE)
Y97. F[[#881]+11750.]
/9G910 E#801 (LASER BACK TO FULL POWER)
/9M474 (WIRE FEED ON)
X243.474 Z-24.289 B-16.239 F#881
X236.11 Z-26.351 B-15.055
X233.382 Y97.001 Z-27.074 B-14.618
/9M475 (WIRE FEED OFF)
/9G910 E#800 (LASER AT IDLE)
X220.764 Z21.308 F[[#881]+11750.]
X187.445 Y97. Z14.485 B-8.526
X194.858 Z-34.962
/9G910 E#801 (LASER BACK TO FULL POWER)
/9M474 (WIRE FEED ON)
X187.504 Z-35.989 B-7.376 F#881
X180.075 Z-36.874 B-6.218
X173.638 Z-37.519 B-5.216
/9M475 (WIRE FEED OFF)
/9G910 E#800 (LASER AT IDLE)
X169.093 Z12.274 F[[#881]+11750.]
X143.382 Z14.096 C4.635
X117.671 Z15.919 C9.27
X91.96 Z17.741 C13.905
X66.249 Z19.563 B-13.324 C180.
X54.726 Z-29.091
/9G910 E#801 (LASER BACK TO FULL POWER)
/9M474 (WIRE FEED ON)
X47.502 Z-27.303 B-14.476 F#881
X40.292 Z-25.364 B-15.632
X33.069 Z-23.264 B-16.797
X29.393 Z-22.133 B-17.393
/9M475 (WIRE FEED OFF)
/9G910 E#800 (LASER AT IDLE)
Y94. F[[#881]+11750.]
/9G910 E#801 (LASER BACK TO FULL POWER)
/9M474 (WIRE FEED ON)
X36.676 Z-24.332 B-16.215 F#881
X43.996 Z-26.38 B-15.038
X51.419 Z-28.292 B-13.851
X54.828 Z-29.115 B-13.308
/9M475 (WIRE FEED OFF)
/9G910 E#800 (LASER AT IDLE)
X66.337 Z19.542 F[[#881]+11750.]
X92.001 Z17.723 C184.626
X117.665 Z15.904 C180.
X143.33 Y94.001 Z14.084 C175.374
X168.994 Z12.265 B-5.198 C0.
X173.523 Z-37.529
/9G910 E#801 (LASER BACK TO FULL POWER)
/9M474 (WIRE FEED ON)
X181.118 Y94. Z-36.759 B-6.38 F#881
X188.55 Z-35.852 B-7.539
X194.695 Z-34.986 B-8.5
/9M475 (WIRE FEED OFF)
/9G910 E#800 (LASER AT IDLE)
X187.304 Z14.464 F[[#881]+11750.]
X220.764 Z21.308 B-14.618
X233.382 Z-27.074
/9G910 E#801 (LASER BACK TO FULL POWER)
/9M474 (WIRE FEED ON)
X240.727 Z-25.077 B-15.796 F#881
X247.934 Z-22.959 B-16.959
X250.607 Z-22.133 B-17.393
/9M475 (WIRE FEED OFF)
/9G910 E#800 (LASER AT IDLE)
Y91. F[[#881]+11750.]
/9G910 E#801 (LASER BACK TO FULL POWER)
/9M474 (WIRE FEED ON)
X243.456 Z-24.294 B-16.236 F#881
X236.057 Z-26.366 B-15.046
X233.382 Z-27.074 B-14.618
/9M475 (WIRE FEED OFF)
/9G910 E#800 (LASER AT IDLE)
X220.764 Z21.308 F[[#881]+11750.]
X187.073 Z14.43 B-8.458
X194.427 Z-35.026
/9G910 E#801 (LASER BACK TO FULL POWER)
/9M474 (WIRE FEED ON)
X186.866 Z-36.071 B-7.276 F#881
X179.472 Z-36.94 B-6.124
X172.966 Z-37.58 B-5.111
/9M475 (WIRE FEED OFF)
/9G910 E#800 (LASER AT IDLE)
X168.512 Z12.222 F[[#881]+11750.]
X143.087 Z14.024 C4.583
X117.663 Z15.826 C9.166
X92.239 Z17.628 C13.748
X66.815 Z19.43 B-13.22 C180.
X55.38 Z-29.245
/9G910 E#801 (LASER BACK TO FULL POWER)
/9M474 (WIRE FEED ON)
X48.115 Z-27.461 B-14.378 F#881
X40.84 Z-25.517 B-15.544
X33.643 Z-23.436 B-16.704
X29.393 Z-22.133 B-17.393
/9M475 (WIRE FEED OFF)
/9G910 E#800 (LASER AT IDLE)
Y88. F[[#881]+11750.]
/9G910 E#801 (LASER BACK TO FULL POWER)
/9M474 (WIRE FEED ON)
X36.69 Z-24.336 B-16.212 F#881
X44.061 Z-26.397 B-15.027
X51.419 Z-28.292 B-13.851
X56.464 Z-29.498 B-13.047
/9M475 (WIRE FEED OFF)
/9G910 E#800 (LASER AT IDLE)
X67.752 Z19.211 F[[#881]+11750.]
X92.707 Z17.443 C184.498
X117.663 Z15.675 C180.
X142.618 Z13.907 C175.502
X167.574 Z12.139 B-4.943 C0.
X171.882 Z-37.675
/9G910 E#801 (LASER BACK TO FULL POWER)
/9M474 (WIRE FEED ON)
X179.318 Z-36.956 B-6.1 F#881
X186.847 Z-36.074 B-7.273
X194.035 Z-35.084 B-8.397
/9M475 (WIRE FEED OFF)
/9G910 E#800 (LASER AT IDLE)
X186.734 Z14.38 F[[#881]+11750.]
X220.764 Z21.308 B-14.618
X233.382 Z-27.074
/9G910 E#801 (LASER BACK TO FULL POWER)
/9M474 (WIRE FEED ON)
X240.707 Z-25.083 B-15.793 F#881
X247.931 Z-22.96 B-16.959
X250.607 Z-22.133 B-17.393
/9M475 (WIRE FEED OFF)
/9G910 E#800 (LASER AT IDLE)
Y85. F[[#881]+11750.]
/9G910 E#801 (LASER BACK TO FULL POWER)
/9M474 (WIRE FEED ON)
X243.439 Z-24.299 B-16.233 F#881
X236.278 Z-26.306 B-15.081
X233.382 Z-27.074 B-14.618
/9M475 (WIRE FEED OFF)
/9G910 E#800 (LASER AT IDLE)
X220.764 Z21.308 F[[#881]+11750.]
X186.313 Y85.001 Z14.318 B-8.321
X193.548 Z-35.156
/9G910 E#801 (LASER BACK TO FULL POWER)
/9M474 (WIRE FEED ON)
X185.987 Y85. Z-36.182 B-7.139 F#881
X178.543 Z-37.038 B-5.979
X171.126 Z-37.74 B-4.825
X170.181 Z-37.818 B-4.679
/9M475 (WIRE FEED OFF)
/9G910 E#800 (LASER AT IDLE)
X166.103 Z12.015 F[[#881]+11750.]
X133.814 Z14.3 C5.818
X101.524 Z16.586 C11.636
X90.761 Z17.347 C17.43
X79.998 Z18.109 C23.224
X69.235 Z18.871 B-12.775 C180.
X58.179 Z-29.891
/9G910 E#801 (LASER BACK TO FULL POWER)
/9M474 (WIRE FEED ON)
X50.983 Z-28.184 B-13.92 F#881
X43.722 Z-26.306 B-15.082
X36.561 Z-24.299 B-16.233
X29.393 Z-22.133 B-17.393
/9M475 (WIRE FEED OFF)
/9G910 E#800 (LASER AT IDLE)
Y82. F[[#881]+11750.]
/9G910 E#801 (LASER BACK TO FULL POWER)
/9M474 (WIRE FEED ON)
X36.704 Z-24.34 B-16.21 F#881
X44.11 Y82.001 Z-26.411 B-15.019
X51.419 Y82. Z-28.292 B-13.851
X58.711 Z-30.012 B-12.691
X60.817 Z-30.479 B-12.357
/9M475 (WIRE FEED OFF)
/9G910 E#800 (LASER AT IDLE)
X71.517 Z18.362 F[[#881]+11750.]
X102.3 Z16.188 C185.544
X133.083 Y82.001 Z14.014 C180.
X143.344 Z13.29 C185.544
X153.605 Z12.565 C180.
X163.866 Z11.84 B-4.277 C0.
X167.595 Z-38.021
/9G910 E#801 (LASER BACK TO FULL POWER)
/9M474 (WIRE FEED ON)
X175.066 Y82. Z-37.386 B-5.438 F#881
X182.566 Z-36.595 B-6.606
X190.036 Z-35.652 B-7.772
X192.943 Y82.001 Z-35.244 B-8.226
/9M475 (WIRE FEED OFF)
/9G910 E#800 (LASER AT IDLE)
X185.789 Z14.242 F[[#881]+11750.]
X220.764 Y82. Z21.308 B-14.618
X233.382 Z-27.074
/9G910 E#801 (LASER BACK TO FULL POWER)
/9M474 (WIRE FEED ON)
X240.665 Z-25.095 B-15.786 F#881
X247.927 Z-22.962 B-16.958
X250.607 Z-22.133 B-17.393
/9M475 (WIRE FEED OFF)
/9G910 E#800 (LASER AT IDLE)
Y79. F[[#881]+11750.]
/9G910 E#801 (LASER BACK TO FULL POWER)
/9M474 (WIRE FEED ON)
X243.422 Z-24.304 B-16.23 F#881
X236.155 Y79.001 Z-26.339 B-15.062
X233.382 Y79. Z-27.074 B-14.618
/9M475 (WIRE FEED OFF)
/9G910 E#800 (LASER AT IDLE)
X220.764 Z21.308 F[[#881]+11750.]
X185.153 Z14.15 B-8.111
X192.208 Z-35.349
/9G910 E#801 (LASER BACK TO FULL POWER)
/9M474 (WIRE FEED ON)
X184.598 Y79.001 Z-36.354 B-6.922 F#881
X177.133 Z-37.183 B-5.759
X169.589 Y79. Z-37.866 B-4.587
X163.474 Z-38.306 B-3.637
/9M475 (WIRE FEED OFF)
/9G910 E#800 (LASER AT IDLE)
X160.302 Z11.594 F[[#881]+11750.]
X131.995 Z13.576 C5.096
X103.687 Z15.558 C10.191
X94.252 Z16.219 C15.272
X84.816 Z16.88 C20.353
X75.38 Z17.541 B-11.649 C180.
X65.284 Z-31.429
/9G910 E#801 (LASER BACK TO FULL POWER)
/9M474 (WIRE FEED ON)
X57.815 Z-29.809 B-12.833 F#881
X50.402 Z-28.04 B-14.013
X43.15 Z-26.152 B-15.173
X35.809 Z-24.079 B-16.354
X29.393 Z-22.133 B-17.393
/9M475 (WIRE FEED OFF)
/9G910 E#800 (LASER AT IDLE)
Y76. F[[#881]+11750.]
/9G910 E#801 (LASER BACK TO FULL POWER)
/9M474 (WIRE FEED ON)
X36.717 Z-24.344 B-16.208 F#881
X43.964 Y76.001 Z-26.371 B-15.043
X51.128 Y76. Z-28.22 B-13.897
X58.422 Z-29.946 B-12.736
X65.886 Z-31.553 B-11.554
X73.407 Z-33.009 B-10.368
X78.414 Y76.001 Z-33.89 B-9.581
/9M475 (WIRE FEED OFF)
/9G910 E#800 (LASER AT IDLE)
X86.736 Z15.413 F[[#881]+11750.]
X114.33 Y76. Z13.184 C184.963
X141.924 Z10.955 B-.344 C0.
X142.224 Z-39.044
/9G910 E#801 (LASER BACK TO FULL POWER)
/9M474 (WIRE FEED ON)
X149.869 Z-38.919 B-1.528 F#881
X157.475 Z-38.638 B-2.707
X164.961 Z-38.208 B-3.868
X172.416 Z-37.628 B-5.026
X179.918 Z-36.892 B-6.193
X187.496 Z-35.99 B-7.375
X191.356 Z-35.47 B-7.978
/9M475 (WIRE FEED OFF)
/9G910 E#800 (LASER AT IDLE)
X184.416 Z14.046 F[[#881]+11750.]
X220.764 Z21.308 B-14.618
X233.382 Z-27.074
/9G910 E#801 (LASER BACK TO FULL POWER)
/9M474 (WIRE FEED ON)
X240.636 Z-25.103 B-15.782 F#881
X247.921 Z-22.963 B-16.957
X250.607 Z-22.133 B-17.393
/9M475 (WIRE FEED OFF)
/9G910 E#800 (LASER AT IDLE)
Y73. F[[#881]+11750.]
/9G910 E#801 (LASER BACK TO FULL POWER)
/9M474 (WIRE FEED ON)
X243.406 Z-24.309 B-16.228 F#881
X236.106 Y73.001 Z-26.352 B-15.054
X233.382 Y73. Z-27.074 B-14.618
/9M475 (WIRE FEED OFF)
/9G910 E#800 (LASER AT IDLE)
X220.764 Z21.308 F[[#881]+11750.]
X183.679 Z13.944 B-7.845
X190.504 Z-35.588
/9G910 E#801 (LASER BACK TO FULL POWER)
/9M474 (WIRE FEED ON)
X182.964 Z-36.548 B-6.668 F#881
X175.416 Z-37.352 B-5.492
X167.828 Y73.001 Z-38.003 B-4.313
X160.312 Y73. Z-38.493 B-3.147
X152.88 Z-38.827 B-1.995
X145.392 Z-39.012 B-.835
X137.92 Z-39.045 B.322
X137.167 Z-39.04 B.439
/9M475 (WIRE FEED OFF)
/9G910 E#800 (LASER AT IDLE)
X137.55 Z10.958 F[[#881]+11750.]
X114.003 Z12.883 C4.234
X90.456 Y72.999 Z14.807 B8.906 C0.
X82.715 Z-34.59
/9G910 E#801 (LASER BACK TO FULL POWER)
/9M474 (WIRE FEED ON)
X75.16 Y73.001 Z-33.326 B10.092 F#881
X67.652 Y73. Z-31.909 B11.275
X60.302 Z-30.366 B12.438
X52.926 Y73.001 Z-28.66 B13.61
X45.507 Y73. Z-26.782 B14.795
X38.254 Z-24.788 B15.96
X31.058 Z-22.65 B17.123
X29.393 Z-22.133 B17.393
/9M475 (WIRE FEED OFF)
/9G910 E#800 (LASER AT IDLE)
Y70. F[[#881]+11750.]
/9G910 E#801 (LASER BACK TO FULL POWER)
/9M474 (WIRE FEED ON)
X36.731 Z-24.348 B16.206 F#881
X44.015 Y70.001 Z-26.385 B15.035
X51.417 Y70. Z-28.291 B13.851
X58.712 Z-30.012 B12.69
X66.135 Y70.001 Z-31.604 B11.515
X73.626 Y70. Z-33.049 B10.334
X81.076 Z-34.329 B9.163
X84.871 Z-34.921 B8.568
/9M475 (WIRE FEED OFF)
/9G910 E#800 (LASER AT IDLE)
X92.32 Z14.521 F[[#881]+11750.]
X113.942 Z12.75 C3.887
X135.563 Z10.98 B.794 C0.
X134.87 Z-39.015
/9G910 E#801 (LASER BACK TO FULL POWER)
/9M474 (WIRE FEED ON)
X142.536 Z-39.042 B-.393 F#881
X150.029 Z-38.915 B-1.553
X157.461 Z-38.639 B-2.705
X164.951 Z-38.209 B-3.866
X172.411 Z-37.629 B-5.025
X179.916 Z-36.892 B-6.193
X187.473 Z-35.993 B-7.371
X190.197 Z-35.63 B-7.797
/9M475 (WIRE FEED OFF)
/9G910 E#800 (LASER AT IDLE)
X183.414 Z13.907 F[[#881]+11750.]
X220.764 Z21.308 B-14.618
X233.382 Z-27.074
/9G910 E#801 (LASER BACK TO FULL POWER)
/9M474 (WIRE FEED ON)
X240.611 Z-25.11 B-15.778 F#881
X247.914 Z-22.965 B-16.956
X250.607 Z-22.133 B-17.393
/9M475 (WIRE FEED OFF)
/9G910 E#800 (LASER AT IDLE)
Y67. F[[#881]+11750.]
/9G910 E#801 (LASER BACK TO FULL POWER)
/9M474 (WIRE FEED ON)
X243.39 Z-24.313 B-16.225 F#881
X236.069 Y67.001 Z-26.362 B-15.048
X233.073 Y67. Z-27.154 B-14.568
/9M475 (WIRE FEED OFF)
/9G910 E#800 (LASER AT IDLE)
X220.496 Z21.238 F[[#881]+11750.]
X183.678 Z13.944 B-7.844
X190.502 Z-35.589
/9G910 E#801 (LASER BACK TO FULL POWER)
/9M474 (WIRE FEED ON)
X182.946 Z-36.55 B-6.665 F#881
X175.377 Y67.001 Z-37.356 B-5.486
X167.769 Z-38.008 B-4.304
X160.309 Y67. Z-38.493 B-3.146
X152.879 Z-38.827 B-1.995
X145.392 Z-39.012 B-.835
X137.924 Z-39.045 B.321
X133.711 Z-38.998 B.974
/9M475 (WIRE FEED OFF)
/9G910 E#800 (LASER AT IDLE)
X134.56 Z10.995 F[[#881]+11750.]
X93.285 Z14.377 B8.394
X85.986 Z-35.088
/9G910 E#801 (LASER BACK TO FULL POWER)
/9M474 (WIRE FEED ON)
X78.546 Y67.001 Z-33.912 B9.56 F#881
X70.985 Y67. Z-32.558 B10.749
X63.549 Z-31.067 B11.924
X56.306 Z-29.462 B13.073
X48.96 Y67.001 Z-27.677 B14.243
X41.707 Y67. Z-25.757 B15.405
X34.496 Z-23.691 B16.567
X29.393 Z-22.133 B17.393
/9M475 (WIRE FEED OFF)
/9G910 E#800 (LASER AT IDLE)
Y64. F[[#881]+11750.]
/9G910 E#801 (LASER BACK TO FULL POWER)
/9M474 (WIRE FEED ON)
X36.743 Z-24.352 B16.204 F#881
X44.056 Y64.001 Z-26.396 B15.028
X51.416 Y64. Z-28.291 B13.851
X58.713 Z-30.012 B12.69
X66.183 Y64.001 Z-31.613 B11.507
X73.622 Y64. Z-33.049 B10.334
X81.079 Z-34.33 B9.163
X86.351 Z-35.141 B8.337
/9M475 (WIRE FEED OFF)
/9G910 E#800 (LASER AT IDLE)
X93.6 Z14.33 F[[#881]+11750.]
X134.231 Z11.001 B1.033
X133.33 Z-38.991
/9G910 E#801 (LASER BACK TO FULL POWER)
/9M474 (WIRE FEED ON)
X140.989 Z-39.05 B-.153 F#881
X148.534 Z-38.953 B-1.322
X155.99 Z-38.705 B-2.477
X163.497 Z-38.304 B-3.641
X170.969 Z-37.753 B-4.801
X178.488 Z-37.044 B-5.97
X186.019 Y64.001 Z-36.178 B-7.144
X191.488 Y64. Z-35.451 B-7.999
/9M475 (WIRE FEED OFF)
/9G910 E#800 (LASER AT IDLE)
X184.531 Z14.062 F[[#881]+11750.]
X219.651 Z21.019 B-14.412
X232.095 Z-27.407
/9G910 E#801 (LASER BACK TO FULL POWER)
/9M474 (WIRE FEED ON)
X239.51 Z-25.419 B-15.601 F#881
X246.786 Z-23.307 B-16.774
X250.607 Z-22.133 B-17.393
/9M475 (WIRE FEED OFF)
/9G910 E#800 (LASER AT IDLE)
Y61. F[[#881]+11750.]
/9G910 E#801 (LASER BACK TO FULL POWER)
/9M474 (WIRE FEED ON)
X243.375 Z-24.318 B-16.223 F#881
X236.026 Y61.001 Z-26.374 B-15.041
X230.301 Y61. Z-27.863 B-14.125
/9M475 (WIRE FEED OFF)
/9G910 E#800 (LASER AT IDLE)
X218.099 Z20.625 F[[#881]+11750.]
X186.116 Y61.001 Z14.289 B-8.285
X193.321 Z-35.189
/9G910 E#801 (LASER BACK TO FULL POWER)
/9M474 (WIRE FEED ON)
X185.703 Y61. Z-36.218 B-7.095 F#881
X178.168 Z-37.077 B-5.921
X170.814 Z-37.766 B-4.777
X163.349 Z-38.314 B-3.618
X155.841 Z-38.712 B-2.454
X148.387 Z-38.956 B-1.299
X140.828 Z-39.05 B-.128
X133.33 Z-38.991 B1.033
/9M475 (WIRE FEED OFF)
/9G910 E#800 (LASER AT IDLE)
X134.231 Z11.001 F[[#881]+11750.]
X93.6 Z14.33 B8.337
X86.351 Z-35.141
/9G910 E#801 (LASER BACK TO FULL POWER)
/9M474 (WIRE FEED ON)
X78.82 Y61.001 Z-33.958 B9.517 F#881
X71.264 Y61. Z-32.611 B10.706
X63.841 Z-31.129 B11.878
X56.596 Z-29.529 B13.026
X49.294 Z-27.761 B14.19
X41.996 Z-25.837 B15.359
X34.766 Z-23.772 B16.523
X29.393 Z-22.133 B17.393
/9M475 (WIRE FEED OFF)
/9G910 E#800 (LASER AT IDLE)
X29.48 Y58. Z-22.16 B17.379 F[[#881]+11750.]
/9G910 E#801 (LASER BACK TO FULL POWER)
/9M474 (WIRE FEED ON)
X36.756 Z-24.356 B16.202 F#881
X44.097 Y58.001 Z-26.407 B15.021
X51.417 Y58. Z-28.291 B13.851
X58.714 Z-30.012 B12.69
X66.231 Y58.001 Z-31.623 B11.5
X73.621 Y58. Z-33.048 B10.334
X81.081 Z-34.33 B9.162
X86.519 Y58.001 Z-35.166 B8.31
/9M475 (WIRE FEED OFF)
/9G910 E#800 (LASER AT IDLE)
X93.745 Z14.309 F[[#881]+11750.]
X134.087 Y58. Z11.004 B1.059
X133.164 Z-38.988
/9G910 E#801 (LASER BACK TO FULL POWER)
/9M474 (WIRE FEED ON)
X140.667 Z-39.05 B-.103 F#881
X148.238 Z-38.959 B-1.276
X155.693 Z-38.718 B-2.431
X163.202 Z-38.323 B-3.595
X170.657 Z-37.779 B-4.753
X178.26 Z-37.068 B-5.935
X185.818 Z-36.203 B-7.113
X193.331 Y58.001 Z-35.188 B-8.287
X196.596 Y58. Z-34.697 B-8.798
/9M475 (WIRE FEED OFF)
/9G910 E#800 (LASER AT IDLE)
X188.948 Z14.714 F[[#881]+11750.]
X215.379 Y58.001 Z19.953 B-13.624
X227.156 Z-28.64
/9G910 E#801 (LASER BACK TO FULL POWER)
/9M474 (WIRE FEED ON)
X234.599 Y58. Z-26.754 B-14.813 F#881
X241.888 Z-24.747 B-15.983
X249.196 Z-22.572 B-17.164
X250.521 Z-22.16 B-17.379
/9M475 (WIRE FEED OFF)
/9G910 E#800 (LASER AT IDLE)
X250.11 Y55. Z-22.289 B-17.312 F[[#881]+11750.]
/9G910 E#801 (LASER BACK TO FULL POWER)
/9M474 (WIRE FEED ON)
X242.858 Z-24.468 B-16.139 F#881
X235.608 Y55.001 Z-26.486 B-14.974
X228.158 Y55. Z-28.396 B-13.783
X220.85 Z-30.11 B-12.621
X213.417 Y55.001 Z-31.695 B-11.444
X206.124 Y55. Z-33.095 B-10.294
